!!!!SEGMENT: pl-wtm--1349-fp-4574_stojowski-zygmunt--deux-caprices-op-16-no-2.krn
!!!cenid: 18xx:4459
!!!COM: Stojowski, Zygmunt
!!!COM-rismID: pe41019736
!!!CDT: 1870-1946
!!!CNT: Polish
!!!OTL: Deux Caprices Op. 16/No. 2
!!!PDT: 1898
!!!AGN: Secular
!!!YEC: Copyright 2022 Narodowy Instytut Fryderyka Chopina (https://polishscores.org)
!!!YEM: License CC-BY-4.0 (https://creativecommons.org/licenses/by/4.0)
!!!SMS-siglum: PL-Wtm
!!!SMS-shelfmark: 1349 fp 4574
!!!SMS-variant:
!!!SMS-altvar:
!!!SMS-shelfwork: W
!!!NIFC-rismSourceID: 1001214683
!!!NIFC-rismChildID: 1001214683
!!!NIFC-islandoraID: pl-wtm:83018
!!!URL-pdf-islandora: https://repozytorium.nifc.pl/islandora/object/pl-wtm%3A83018/datastream/PDF/view
!!!URL-scan: https://polish.musicsources.pl/pl/lokalizacje/galeria/druki-muzyczne/18544/2 @EN{Scan on Polish Music Sources Website} @PL{Skany w portalu Dziedzictwo Muzyki Polskiej w otwartym dostępie}
!!!IIIF:
!!!ONB-nifc:
!!!AIN: 1 piano
!!!key: a
**kern	**fing	**kern	**fing	**dynam
*part1	*	*part1	*	*part1
*staff2	*	*staff1	*	*staff1/2
*group1	*	*group1	*	*
*ICklav	*	*ICklav	*	*
*Ipiano	*	*Ipiano	*	*
*I"PIANO.	*	*I"PIANO.	*	*
*	*	*I'	*	*
*clefF4	*	*clefG2	*	*
*kcancel	*	*kcancel	*	*
*k[]	*	*k[]	*	*
*a:	*	*a:	*	*
*M4/4	*	*M4/4	*	*
*met(c)	*	*met(c)	*	*
=1	=1	=1	=1	=1
!!LO:TX:a:B:t=Allegro molto.
4r	.	4r	.	.
!	!	!	!	!LO:DY:t=%s marc.
4E'\	.	4e'/	.	f
4D'\	.	4d'/	.	.
[4F^\	.	[4f^>/	.	.
=2	=2	=2	=2	=2
8F\L]	.	8f/L]	.	.
8E\	.	8e'/	.	>
8D#X\	.	8d#X'/	.	.
[8F^\J	.	[8f^>/J	.	.
8F\L]	.	8f/L]	.	.
8E\	.	8e'/	.	.
.	.	.	.	]
8Dn\	.	8dn'/	.	p
[8F\J	.	[8f/J	.	.
=3	=3	=3	=3	=3
(16F\LL]	.	(16f/LL]	.	.
16E\	.	16e/	.	<
16D#X\	.	16d#X/	.	.
16F\JJ	.	16f/JJ	.	.
16E\LL	.	16e/LL	.	.
16D#\	.	16d#/	.	.
16F\	.	16f/	.	.
16E\JJ	.	16e/JJ	.	.
16D#\LL	.	16d#/LL	.	.
16F\	.	16f/	.	.
16E\	.	16e/	.	.
16D#\JJ	.	16d#/JJ	.	.
16F\LL	.	16f/LL	.	.
16E\	.	16e/	.	.
16D#\	.	16d#/	.	.
16F\JJ	.	16f/JJ)	.	[[
!!LO:LB:g=original
=4	=4	=4	=4	=4
8E^\)	.	(16e^>/LL	.	.
.	.	16dn/	.	.
8r	.	16f/	.	.
.	.	16e/JJ	.	.
4r	.	16d/LL	.	>
.	.	16f/	.	.
.	.	16e/	.	.
.	.	16d/JJ	.	.
2r	.	16f/LL	.	.
.	.	16e/	.	.
.	.	16d/	.	.
.	.	16f/JJ	.	.
.	.	16e/LL	.	.
.	.	16d/	.	.
.	.	.	.	]
.	.	16c/	.	.
.	.	16B/JJ)	.	.
=5	=5	=5	=5	=5
*^	*	*	*	*
!	!	!	!	!	!LO:DY:t=%s agitato
8r	8ryy	.	(16A/LL	1	p
.	.	.	16c/	.	.
!LO:TX:b:i:t=poco marcato	!	!	!	!	!LO:HP:a
(8E/L	[4.AA\	.	16e/	.	<
.	.	.	16a/JJ	.	.
8D/	.	.	16g#X\LL	1	.
.	.	.	16b\	.	.
8BB/J	.	.	16dd\	.	[
.	.	.	16ff\JJ	.	.
4C/	8AA\]	.	16ee\LL	.	.
.	.	.	16cc\	.	.
!	!	!	!	!	!LO:HP:a
.	4AA\	.	16g#\	.	>
.	.	.	16b\JJ	.	.
4D/	.	.	16a/LL	.	.
.	.	.	16e/	.	]
.	[8AA\	.	16B/	.	.
.	.	.	16d/JJ	.	.
!!LO:LB:g=original
=6	=6	=6	=6	=6	=6
4E/	8AA\]	.	16c/LL	.	.
!	!	!	!	!	!LO:HP:a
.	.	.	16e/	.	<
.	4AA\	.	16g#X/	.	.
.	.	.	16b/JJ	.	[
[4F/)	.	.	16a/LL	.	.
.	.	.	16f/	.	.
.	[8AA\	.	16c#X/	.	.
.	.	.	16e/JJ	.	.
!	!	!	!	!	!LO:HP:a
8F/L]	4.AA\]	.	16d/LL	.	<
.	.	.	16f#X/	.	.
8F#X'/J	.	.	16a/	.	.
.	.	.	16cc/JJ	.	[
[4G/	.	.	16b/LL	.	.
.	.	.	16gn/	.	.
.	[8AA\	.	16d#X/	.	.
.	.	.	16f#/JJ	.	.
=7	=7	=7	=7	=7	=7
*	*	*	*	*	*^
!	!	!	!	!	!LO:HP:a	!
8G/L]	2AA\_	.	16e/LL	.	<	.
.	.	.	16g#X/	.	.	.
!	!	!	!	!	!	!LO:HP:b=2
(8G#X/	.	.	16b/	.	.	<
.	.	.	16dd/JJ	.	.	.
8A/	.	.	16cc/LL	.	.	.
.	.	.	16b/	.	.	.
8B/J	.	.	16a/	.	.	[
.	.	.	16gn/JJ	1	.	.
8c/)	8AA\]	.	16f#X\LL	.	[	.
.	.	.	16a\	1	.	.
!	!	!	!	!	!	!LO:HP:b=2
(4Gn^\	4.ryy	.	16cc\	.	.	>
.	.	.	16ee\JJ	.	.	.
!	!	!	!	!	!LO:HP:a	!
.	.	.	16dd#X\LL	.	>	.
.	.	.	16cc\	.	.	.
8F\)	.	.	16b\	.	.	]
.	.	.	16a\JJ	.	]	.
*v	*v	*	*	*	*v	*v
!!LO:LB:g=original
=8	=8	=8	=8	=8
8E'/L	.	16g#X\LL	2	.
.	.	16ff\	.	.
16r	.	16ee\	.	.
(16EE/Jk	.	16gn\JJ	1	<
16EE#X/LL	.	16f#X\LL	2	.
16FF#X/	.	16ee-X\	5	.
16GG/	.	16dd\	4	.
16GG#X/JJ	.	16fn\JJ	.	.
16AA/LL	.	16cc#X/LL	3	[
16AA#X/	.	16e/	1	.
16BB/	.	16d#X/	2	>
16C/JJ	.	16ccn/JJ	5	.
16C#X/LL	.	16b/LL	4	.
16D/	.	16dn/	.	.
16D#X/	.	16g#X/	3	.
16E/JJ)	.	16B/JJ)	.	]
=9	=9	=9	=9	=9
!	!	!LO:TX:a:i:t=legg.	!	!
(16AA^\LL	.	8r	.	p
16Cn\	.	.	.	.
!	!	!	!	!LO:HP:b=2
16E\	.	8eL 8c'/	.	<
16A\JJ	.	.	.	.
16G#X\LL	.	8r	.	.
16B\	.	.	.	.
16d\	.	8bJ 8g#X'/	.	[
16f\JJ	.	.	.	.
!	!	!	!	!LO:HP:b=2
16e^\LL	.	8r	.	>
16c\	1	.	.	.
16G#\	.	8ddL 8b'/	.	.
16B\JJ	.	.	.	.
16A\LL	1	8r	.	.
16E\	.	.	.	]
16BB\	.	8g#J 8e'/	.	.
16D\JJ	3	.	.	.
!!LO:LB:g=original
=10	=10	=10	=10	=10
*	*below	*	*	*
16C\LL	5	8r	.	.
16E\	.	.	.	.
16G#X\	.	(>8eeL [8e/	.	.
16B\JJ	.	.	.	.
16A\LL	.	8f 8e/]	.	.
16F\	1	.	.	.
16C#X\	4	8aJ 8gn/)	.	.
16E\JJ	2	.	.	.
16D\LL	5	8r	.	<
16F#X\	.	.	.	.
16A\	.	(8ff#XL 8f#X\	.	.
16cn\JJ	.	.	.	.
16B\LL	.	8g\	.	.
16Gn\	1	.	.	.
16D#X\	.	8bJ 8a\)	.	.
16F#\JJ	.	.	.	.
=11	=11	=11	=11	=11
*	*	*^	*	*
16E\LL	5	8r	2ryy	.	.
16G#X\	.	.	.	.	.
!	!	!	!	!	!LO:HP:a
16B\	.	(8gg#XL 8g#X\	.	.	<
16d\JJ	.	.	.	.	.
16c\LL	.	8aa 8a\	.	.	.
16B\	1	.	.	.	.
16A\	.	8bbJ 8b\	.	.	[
16Gn\JJ	.	.	.	.	.
16F#X\LL	4	8ccc/L)	8cc\	.	.
16A\	.	.	.	.	.
16c\	.	(8ee/	4cc\	.	.
16e\JJ	.	.	.	.	.
16d#X\LL	.	8ggn/)	.	.	.
16c\	1	.	.	.	.
16B\	.	(8dd#X/J	[8cc\	.	.
16A\JJ	.	.	.	.	.
!!LO:PB:g=original
=12	=12	=12	=12	=12	=12
16G#X\LL	4	8ff/L)	8cc\]	.	>
16f\	1	.	.	.	.
16e\	2	(8cc#X/	4b-X\	.	.
16Gn\JJ	5	.	.	.	.
16F#X\LL	4	8ee-X/)	.	.	.
16e-X\	1	.	.	.	.
16d\	2	8bn/J	8a-X\	.	]
16Fn\JJ)	5	.	.	.	.
(16BB\LL	5	8r	8ryy	.	.
16D\	.	.	.	.	.
16F\	.	4.ff/	(>8aanL 8an\	.	<
16A\JJ	.	.	.	.	.
!	!	!	!LO:SIC:v:o=8ccc 8cc#\	!	!
16G#X\LL	.	.	8ccc 8ccn\	.	.
.	.	.	.	.	[
16A\	.	.	.	.	>
16B\	.	.	8gg#XJ 8g#X\)	.	.
16c\JJ	.	.	.	.	]
*clefG2	*	*	*	*	*
=13	=13	=13	=13	=13	=13
16B/LL	.	8r	8ryy	.	.
16d/	.	.	.	.	<
16f/	.	(8aa/L	[4.ff\	.	.
16a/JJ	.	.	.	.	.
.	.	.	.	.	[
16g#X/LL	.	8ccc/	.	.	>
16f/	1	.	.	.	.
16e/	.	8gg#X/J	.	.	]
16d/JJ	.	.	.	.	.
16c/LL	.	8bb'/)	8ff\]	.	.
16e/	.	.	.	.	<
16g#/	.	4eee 4ee~\	4.ryy	.	.
16b/JJ	.	.	.	.	.
16a/LL	.	.	.	.	.
16g#/	.	.	.	.	.
*	*	*8va	*	*	*
16gn/	.	[8eeee [8eee^\	.	.	[
16f#X/JJ	.	.	.	.	.
*clefF4	*	*	*	*	*
!!LO:LB:g=original
=14	=14	=14	=14	=14	=14
8fn\L)	.	8ryy	16eeee]LL 16eee\]	.	.
.	.	.	16ddd#X\	.	.
(8B\	.	[8fff/L	16dddn\	.	>
.	.	.	16ccc#X\JJ	.	.
8e\)	.	16fff/Jk]	16cccn\LL	.	.
.	.	16r	16bb\	.	.
(8B-X\J	.	[8ddd/L	16bb-X\	.	.
.	.	.	16aa\JJ	.	.
!!LO:TX:a:i:t=quasi slentando
8d\L)	.	16ddd/Jk]	16gg#X\LL	.	.
.	.	16rfff	16ggn\	.	.
(8A\	.	[8aa/L	16ff#X\	.	.
.	.	.	16ffn\JJ	.	]
8c\)	.	16aa/K]	16ee\LL	.	.
.	.	16r	16dd#X\	.	.
8G#X\J	.	(8ff/J	16ddn\	.	.
.	.	.	16cc#X\JJ	.	.
*	*	*v	*v	*	*
=15	=15	=15	=15	=15
*	*	*	*	*^
!!LO:TX:a:i:t=a tempo
(16AA\LL	.	16eeKL 16ccn/)	.	.	.
*	*	*X8va	*	*	*
16C\	.	16rb	.	.	.
!	!	!	!	!LO:HP:a	!LO:HP:b=2
!	!	!	!	!LO:DY:b	!
16E\	.	(>8e 8c/	.	p <	<
16A\JJ	.	.	.	.	.
16G#X\LL	.	8f/	.	.	.
16B\	.	.	.	.	.
16d\	.	8b/J)	.	[	[
16f\JJ	.	.	.	.	.
!	!	!	!	!	!LO:HP:b=2
16e\LL	.	8r	.	.	>
16c\	.	.	.	.	.
16G#\	.	8e 8d'/	.	.	.
16B\JJ	.	.	.	.	]
8A'\L)	.	16r	.	.	.
.	.	(16c#X/LL	.	<	.
8EJ 8AA'\	.	16a 16g/	.	.	.
.	.	16a/JJ	.	[	.
*	*	*	*	*v	*v
!!LO:LB:g=original
=16	=16	=16	=16	=16
*^	*	*	*	*
16D\	8ryy	.	16aa 16ff^\)	.	.
16r	.	.	16r	.	.
(8AA/L	[4.DD\	.	(>16F/LL	.	<
.	.	.	16d/JJ	.	.
8GGn/	.	.	16c#X/LL	1	.
.	.	.	16e/	.	.
[8EE/J)	.	.	16g/	.	.
.	.	.	16b-X/JJ	.	[
8EE/]	2DD\]	.	16a/LL	.	.
.	.	.	16f/	.	>
(4FF/	.	.	16c#X/	1	.
.	.	.	16e/JJ	5	.
.	.	.	16d/LL	.	.
.	.	.	16cn/	.	.
8FF#X/)	.	.	16B/	.	]
.	.	.	16A/JJ)	.	.
*v	*v	*	*	*	*
=17	=17	=17	=17	=17
(<16GGLL 16GGG^/	.	8r	.	.
16BB/	.	.	.	.
16D/	.	(>8dL 8B/	.	<
16G/JJ	.	.	.	.
16F#X\LL	.	8e-X/	.	.
16A\	.	.	.	.
16c\	.	8a/J)	.	[
16e-X\JJ	.	.	.	.
16d\LL	.	8r	.	>
16B\	.	.	.	.
16F#\	.	8d 8c'/	.	.
16A\JJ	.	.	.	]
8G/L)	.	16r	.	.
.	.	(>16B/LL	.	.
8DJ 8GG'/	.	16g 16fn/	.	.
.	.	16g/JJ	.	.
!!LO:LB:g=original
=18	=18	=18	=18	=18
*^	*	*	*	*^
8C/L	8ryy	.	16ggLL 16ee/)	.	.	.
!	!	!	!	!	!LO:DY:b	!
.	.	.	16c/	.	p	.
!	!	!	!	!	!LO:HP:t=cresc. molto	!LO:HP:a=
(8GG/J	4.CC\	.	(16e/	.	<	.
!	!	!	!	!	!	!LO:HP:a=2
.	.	.	.	.	.	<
.	.	.	16cc/JJ	.	.	.
4AA-X/)	.	.	16b\LL	.	.	[
.	.	.	16dd\	.	.	.
.	.	.	16ff\	.	.	.
.	.	.	16aa-X\JJ)	.	.	.
8r	8ryy	.	(16c/LL	.	.	.
.	.	.	16e/	.	.	.
(8G/	4.C\	.	16g/	.	.	.
!	!	!	!	!	!	!LO:HP:a=2
.	.	.	.	.	.	<
.	.	.	16cc/JJ	.	.	.
4A-X/)	.	.	16dd\LL	.	.	[
.	.	.	16ff\	.	.	.
.	.	.	16bb\	.	.	.
.	.	.	16ddd\JJ)	.	.	.
*	*	*	*	*	*v	*v
=19	=19	=19	=19	=19	=19
8r	8ryy	.	(16c/LL	.	<
.	.	.	16e/	.	.
(8GG/	4.CC\	.	16g/	.	.
.	.	.	16cc/JJ	.	.
4AA-X/)	.	.	16b\LL	.	.
.	.	.	16dd\	.	.
.	.	.	16ff\	.	.
.	.	.	16bbJJ 16aa-X\)	.	.
8r	8ryy	.	(16e/LL	.	.
.	.	.	16g/	.	.
(8G/	4.C\	.	16cc/	.	[
.	.	.	16ee/JJ	.	.
4A-X/)	.	.	16ff\LL	.	.
.	.	.	16bb\	.	.
.	.	.	16ddd\	.	.
.	.	.	16fff\JJ)	.	.
!!LO:LB:g=original
=20	=20	=20	=20	=20	=20
8r	8ryy	.	(16c/LL	.	.
.	.	.	16e/	.	.
(8GG/L	4.CC\	.	16g/	.	.
.	.	.	16cc/JJ	.	.
8AA-X/	.	.	16b\LL	.	.
.	.	.	16dd\	.	.
8D/J)	.	.	16ff\	.	.
.	.	.	16aa-X\JJ	.	.
8r	8ryy	.	16gg\LL	5	.
.	.	.	16ee\	.	.
(8G/L	4.C\	.	16b\	.	.
.	.	.	16dd\JJ	.	.
8G#X/	.	.	16cc\LL	.	.
.	.	.	16b\	.	.
8An/J)	.	.	16ee 16an\	.	.
.	.	.	16g\JJ)	.	.
*v	*v	*	*	*	*
=21	=21	=21	=21	=21
8r	.	(16a/LL	.	f
.	.	16f/	.	.
8BBL 8BBB/	.	16c#X/	.	.
.	.	16e/JJ	.	.
8C 8CC/	.	16d/LL	.	.
.	.	16cn/	.	.
8DJ 8DD/	.	16f 16B/	.	.
.	.	16A/JJ)	.	.
(16B\LL	.	8r	.	.
16G#X\	.	.	.	.
16D#X\	4	(>8bL 8B/	.	.
16F\JJ	2	.	.	.
16E/LL	1	8cc 8c/	.	.
16Dn/	.	.	.	.
16BB/	.	8ddJ 8d/	.	.
16C/JJ	.	.	.	.
!!LO:LB:g=original
=22	=22	=22	=22	=22
8BB/)	.	8dd#X 8d#X/)	.	.
(16dn\LL	1	(4ee 4e/	.	>
16c\JJ	.	.	.	.
16B\LL	3	.	.	.
16c\	1	.	.	.
16B\	.	4ff 4f\	.	.
16A\JJ	.	.	.	.
16B\LL	.	.	.	.
16c\	.	.	.	.
16B\	.	8ff#XL 8f#X\	.	.
16A\JJ	.	.	.	.
16B\LL	.	8gg 8g\	.	.
16c\	.	.	.	.
16B\	.	8gg#XJ 8g#X\)	.	]
16E\JJ)	.	.	.	.
=23	=23	=23	=23	=23
8r	.	(16A/LL	.	.
.	.	16c/	.	.
!	!	!	!	!LO:HP:a=2
(8AAL 8AAA/	.	16e/	.	<
.	.	16a/JJ	.	.
8BB 8BBB/	.	16g#X\LL	.	.
.	.	16b\	.	.
8DJ 8DD/	.	16dd\	.	[
.	.	16ff\JJ	.	.
8CL 8CC/)	.	16ee\LL	.	p
!	!	!LO:TX:b:i:t=poco-a-poco-cresc.:ext=s:problem:text with extention lines	!	!
.	.	16cc\	.	<
8AA 8AAA'/	.	16g#\	.	.
.	.	16b\JJ	.	.
8C#X 8CC#X'/	.	16a/LL	.	.
.	.	16gn/	.	.
8AAJ 8AAA'/	.	16f/	.	.
.	.	16e/JJ)	.	[
!!LO:PB:g=original
=24	=24	=24	=24	=24
8DL 8DD\	.	16rc<	.	.
!	!	!LO:TX:t=P:problem:mixed beam	!	!
.	.	(16F</LL	.	.
8AA 8AAA\	.	16A</	.	.
.	.	16d\JJ	.	.
8E 8EE\	.	16c#X/LL	.	.
.	.	16e/	.	.
8AAJ 8AAA\	.	16g/	.	.
.	.	16b-X/JJ	.	.
8FL 8FF/	.	16a/LL	.	.
.	.	16f/	.	.
8AA 8AAA/	.	16c#/	.	.
.	.	16e/JJ)	.	.
8F#X 8FF#X/	.	16r	.	.
.	.	(16d/LL	.	.
8AA-XJ 8AAA-X/	.	16dd 16ccn/	.	.
.	.	[16dd/JJ	.	.
=25	=25	=25	=25	=25
8GL 8GG/	.	8ddd 8bb 8dd\])	.	.
8GG 8GGG/	.	(16B/LL	.	.
.	.	16g/JJ	.	.
8A 8AA/	.	16f#X\LL	.	.
.	.	16a\	.	.
8GGJ 8GGG/	.	16cc\	.	.
.	.	16ee-X\JJ	.	.
8cL 8C/	.	16dd/LL	.	.
.	.	16b/	.	.
8GG 8GGG/	.	16f#/	.	.
.	.	16a/JJ	.	.
8B 8BB/	.	16g/LL	.	.
.	.	16fn/	.	.
8GGJ 8GGG/	.	16e/	.	.
.	.	16d/JJ)	.	.
!!LO:LB:g=original
=26	=26	=26	=26	=26
8cL 8C/	.	16r	.	.
.	.	(16e/LL	.	.
8GG 8GGG/	.	16g/	.	.
.	.	16cc/JJ	.	.
8d 8D/	.	16b\LL	.	.
.	.	16dd\	.	.
8GGJ 8GGG/	.	16ff\	.	.
.	.	16bbJJ 16aa-X\)	.	.
8cL 8C/	.	16r	.	.
.	.	(16e/LL	.	.
8GG 8GGG/	.	16g/	.	.
.	.	16eeJJ 16cc/	.	.
8d 8D/	.	16ff\LL	.	.
.	.	16bb\	.	.
8GGJ 8GGG/	.	16ddd\	.	.
.	.	16fff\JJ)	.	.
=27	=27	=27	=27	=27
8cL 8C/	.	16r	.	.
.	.	(16e/LL	.	.
8GG 8GGG/	.	16g/	.	.
.	.	16eeJJ 16cc/	.	.
8d 8D/	.	16ff\LL	.	.
.	.	16bb\	.	.
8GGJ 8GGG/	.	16ddd\	.	.
.	.	16fff\JJ)	.	.
8eL 8E/	.	16r	.	.
.	.	(16g\LL	.	.
8GG 8GGG/	.	16cc\	.	.
.	.	16ggJJ 16ee\	.	.
8f 8F/	.	16aa-X\LL	.	.
.	.	16ddd\	.	.
8GGJ 8GGG/	.	16fff\	.	.
.	.	16aaa-X\JJ)	.	.
!!LO:LB:g=original
=28	=28	=28	=28	=28
(16CC^/LL	.	8.r	.	ff
16FF#X/	.	.	.	.
16GG/	.	.	.	.
16C/JJ	.	(16ggKL 16ee 16g\	.	.
16BB\LL	.	8aa-X 8a-X\)	.	.
16D\	.	.	.	.
16Fn\	.	8dddJ 8aa- 8ff 8dd\	.	.
16A-X\JJ)	.	.	.	.
(16CC^/LL	.	8.r	.	.
16FF#X/	.	.	.	.
16GG/	.	.	.	.
16C/JJ	.	(16ggKL 16ee 16g\	.	.
16BB\LL	.	8aa- 8a-\)	.	.
16D\	.	.	.	.
16F\	.	8dddJ 8aa- 8ff 8dd\	.	.
16A-\JJ)	.	.	.	.
=29	=29	=29	=29	=29
!	!	!	!	!LO:DY:t=meno %s
(16CC/LL	.	8.r	.	f
16FF#X/	.	.	.	.
16GG/	.	.	.	.
16C/JJ	.	(>[16e/KL	.	.
16BB\LL	.	8f 8e/]	.	.
16D\	.	.	.	.
16F\	.	8anJ 8d/)	.	.
16An\JJ)	.	.	.	>
(16CC/LL	.	8.r	.	.
16FF#X/	.	.	.	.
16GG/	.	.	.	.
16C/JJ	.	(>[16e/KL	.	.
16BB\LL	.	8f 8e/]	.	.
16D\	.	.	.	]
16F\	.	8a-XJ 8d/)	.	.
16A-X\JJ)	.	.	.	.
!!LO:LB:g=original
=30	=30	=30	=30	=30
(16CC/LL	.	8.r	.	<
16FF#X/	.	.	.	.
16GG/	.	.	.	.
16C/JJ	.	(>[16e/KL	.	.
16BB\LL	.	8f 8e/]	.	.
16D\	.	.	.	.
16F\	.	8anJ 8d/)	.	.
16An\JJ)	.	.	.	.
(16CC/LL	.	8.r	.	.
16FF#X/	.	.	.	.
16GG/	.	.	.	.
16C/JJ	.	(>[16e/KL	.	.
16BB\LL	.	8f 8e/]	.	.
16D#X\	.	.	.	.
16F\	.	8aJ 8d#X/)	.	.
16A\JJ)	.	.	.	.
=31	=31	=31	=31	=31
*	*	*^	*	*
(16CC/LL	.	8.r	2ryy	.	.
16FF#X/	.	.	.	.	.
16GG/	.	.	.	.	<
16C/JJ	.	(16eeKL 16e\	.	.	.
16BB\LL	.	8ff 8f\)	.	.	.
16D\	.	.	.	.	.
16Fn\	.	[8ffJ [8dd [8f\	.	.	.
16A-X\JJ)	.	.	.	.	.
(16CC/LL	.	8ff]L 8dd] 8f\]	4ryy	.	.
16FF#X/	.	.	.	.	.
16GG/	.	8gg 8ee 8g~\	.	.	.
16C/JJ	.	.	.	.	.
16BB\LL	.	(8aa 8a\	4ff/	.	[
16D\	.	.	.	.	.
16F\	.	8bbJ 8b\)	.	.	.
16An\JJ)	.	.	.	.	.
!!LO:LB:g=original
=32	=32	=32	=32	=32	=32
2BB 2EE/	.	16r	4ryy	.	.
.	.	(>16B/LL	.	.	.
.	.	16e/	.	.	.
.	.	16bJJ 16g#X/)	.	.	.
.	.	16ryy	16f#XLL 16d#X\	.	<
.	.	16bLL 16a/	16ryy	.	.
.	.	16ryy	16cc\JJ	.	[
.	.	16ccc/JJ	16ryy	.	.
2BB 2EE/	.	16r	4ryy	.	.
.	.	16B/LL	.	.	.
.	.	16e/	.	.	.
.	.	16bJJ 16g#/	.	.	.
.	.	16ryy	16f#LL 16d#\	.	<
.	.	16bLL 16a/	16ryy	.	.
.	.	16ryy	16cc\JJ	.	[
.	.	16ccc/JJ	16ryy	.	.
*	*	*v	*v	*	*
=33	=33	=33	=33	=33
*^	*	*	*	*
4ryy	2EE 2EEE\	.	16rB<	.	.
!	!	!	!LO:TX:t=P:problem:mixed beam	!	!
.	.	.	16E</LL	.	.
.	.	.	16A</	.	.
.	.	.	16eJJ 16c#X\	.	.
!LO:TX:t=P:problem:mixed beam	!	!	!	!	!
16BLL 16G#X/	.	.	16ryy	.	.
16ryy	.	.	16eLL 16dn/	.	.
16fn>\JJ	.	.	16ryy	.	.
16ryy	.	.	16ff/JJ	.	.
4ryy	2EE 2EEE\	.	16rB<	.	.
!	!	!	!LO:TX:t=P:problem:mixed beam	!	!
.	.	.	16E</LL	.	.
.	.	.	16A</	.	.
.	.	.	16eJJ 16c#\	.	.
*ped	*	*	*	*	*
!LO:TX:t=P:problem:mixed beam	!	!	!	!	!
16BLL 16G#/	.	.	16ryy	.	.
16ryy	.	.	16eLL 16d/	.	.
16f>\JJ	.	.	16ryy	.	.
16ryy	.	.	16ff/JJ	.	.
*v	*v	*	*	*	*
=34	=34	=34	=34	=34
!	!	!LO:TX:t=P:problem:mixed beam	!	!
16ryy	.	16fLL 16d\	.	.
16A#X\LL	.	16ryy	.	.
16ryy	.	16B</JJ	.	.
16G#X\JJ	.	16ryy	.	.
16ryy	.	16ffLL 16dd/	.	.
16a#X>\LL	.	16ryy	.	<
16ryy	.	16b/JJ	.	.
16g#X>\JJ	.	16ryy	.	.
16ryy	.	16ffLL 16dd/	.	.
16a#>\LL	.	16ryy	.	.
16ryy	.	16b/JJ	.	.
16g#>\JJ	.	16ryy	.	.
*8va	*	*8va	*	*
!	!	!LO:TX:t=P:problem:przenośnik oktawowy	!	!
16ryy	.	16fffLL 16ddd/	.	.
16aa#>\LL	.	16ryy	.	[
16ryy	.	16bb/JJ	.	.
16gg#>\JJ	.	16ryy	.	.
!!LO:PB:g=original
=35	=35	=35	=35	=35
*	*	*	*	*^
!	!	!	!	!LO:DY:a:rj	!
16ryy	.	16ffffLL 16dddd/	2 4	sf	ff
16aaa#X>\LL	2	16ryy	.	.	.
16ryy	.	16bbb/JJ	1	.	.
16ggg#X>\JJ	3	16ryy	.	.	.
16ryy	.	16eeee-XLL 16cccc/	2 4	.	.
16aaa#>\LL	2	16ryy	.	.	.
16ryy	.	16bbb/JJ	1	.	.
16gggn>\JJ	3	16ryy	.	.	.
16ryy	.	16ddddLL 16bbb/	.	.	.
16ggg##X>\LL	.	16ryy	.	.	.
16ryy	.	16aaa#X/JJ	.	>	.
16fff#X>\JJ	.	16ryy	.	.	.
16ryy	.	16cccc#XLL 16aaa#/	.	.	.
!LO:N:acc=n#	!	!	!	!	!
16ggg#X>\LL	.	16ryy	.	.	.
16ryy	.	16aaan/JJ	.	.	.
16fffn>\JJ	.	16ryy	.	.	.
=36	=36	=36	=36	=36	=36
16ryy	.	16ccccnLL 16aaa/	.	]	.
!	!	!	!	!LO:DY:b	!
16fff##X>\LL	.	16ryy	.	p	.
16ryy	.	16ggg#X/JJ	.	.	.
16eee>\JJ	.	16ryy	.	<	.
16ryy	.	16bbbLL 16ggg#/	.	.	.
!LO:N:acc=n#	!	!	!	!	!
16fff#X>\LL	.	16ryy	.	.	.
16ryy	.	16gggn/JJ	.	.	.
16eee-X>\JJ	.	16ryy	.	.	.
16ryy	.	16bbb-XLL 16ggg/	.	.	.
!LO:N:acc=n#	!	!	!	!	!
16eee#X>\LL	.	16ryy	.	.	.
16ryy	.	16fff#y/JJ	.	.	.
16ddd>\JJ	.	16ryy	.	.	.
16ryy	.	16aaaLL 16fff#/	.	.	.
16ddd##X>\LL	.	16ryy	.	.	.
16ryy	.	16eee#X/JJ	.	.	.
16ccc#X>\JJ	.	16ryy	.	.	.
*	*	*	*	*v	*v
!!LO:LB:g=original
=37	=37	=37	=37	=37
!	!	!LO:TX:t=P:problem:przenośnik oktawowy	!	!
16ryy	.	16ggg#XLL 16eee#X/	.	.
!LO:N:acc=n#	!	!	!	!
16ddd#X>\LL	.	16ryy	.	.
16ryy	.	16eeen/JJ	.	.
16cccn>\JJ	.	16ryy	.	.
16ryy	.	16gggnLL 16eee/	.	.
16ccc##X>\LL	.	16ryy	.	.
16ryy	.	16ddd#X/JJ	.	.
16bb>\JJ	.	16ryy	.	.
16ryy	.	16fff#XLL 16ddd#/	.	[
!LO:N:acc=n#	!	!	!	!
16ccc#X>\LL	.	16ryy	.	.
16ryy	.	16dddn/JJ	.	.
16bb-X>\JJ	.	16ryy	.	.
16ryy	.	16fffnLL 16ddd/	.	.
!LO:N:acc=n#	!	!	!	!
16bb#X>\LL	.	16ryy	.	.
16ryy	.	16ccc#X/JJ	.	.
16aa>\JJ	.	16ryy	.	.
=38	=38	=38	=38	=38
16ryy	.	16eeeLL 16ccc#X/	.	.
16bbn>\LL	.	16ryy	.	.
16ryy	.	16cccn/JJ	.	.
16aa-X>\JJ	.	16ryy	.	.
16ryy	.	16eee-XLL 16ccc/	.	.
!LO:N:acc=n#	!	!	!	!
16aa#X>\LL	.	16ryy	.	.
16ryy	.	16bb/JJ	.	.
16gg>\JJ	.	16ryy	.	.
16ryy	.	16dddLL 16bb/	.	.
16gg##X>\LL	.	16ryy	.	.
16ryy	.	16aa#y/JJ	.	.
16ff#X>\JJ	.	16ryy	.	.
16ryy	.	16ccc#XLL 16aa#/	.	.
!LO:N:acc=n#	!	!	!	!
16gg#X>\LL	.	16ryy	.	.
16ryy	.	16aan/JJ	.	.
16ffn>\JJ	.	16ryy	.	.
!!LO:LB:g=original
=39	=39	=39	=39	=39
!	!	!LO:TX:t=P:problem:przenośnik oktawowy	!	!
16ryy	.	16cccnLL 16aa/	.	.
16ff##X>\LL	.	16ryy	.	.
16ryy	.	16gg#X/JJ	.	.
16ee>\JJ	.	16ryy	.	.
16ryy	.	16bbLL 16gg#/	.	.
!LO:N:acc=n#	!	!	!	!
16ff#X>\LL	.	16ryy	.	.
16ryy	.	16ggn/JJ	.	.
16ee-X>\JJ	.	16ryy	.	.
16ryy	.	16bb-XLL 16gg/	.	.
!LO:N:acc=n#	!	!	!	!
16ee#X>\LL	.	16ryy	.	.
16ryy	.	16ff#y/JJ	.	.
16dd>\JJ	.	16ryy	.	.
16ryy	.	16aaLL 16ff#/	.	.
16een>\LL	.	16ryy	.	.
16ryy	.	16ffn/JJ	.	.
16dd-X>\JJ	.	16ryy	.	.
*X8va	*	*X8va	*	*
=40	=40	=40	=40	=40
16ryy	.	16aa-XLL 16ff/	.	.
!LO:N:acc=n#	!	!	!	!
16dd#X>\LL	.	16ryy	.	.
16ryy	.	16ee/JJ	.	.
16cc>\JJ	.	16ryy	.	.
16ryy	.	16ggLL 16ee/	.	.
16cc##X>\LL	.	16ryy	.	.
16ryy	.	16dd#X/JJ	.	.
16b>\JJ	.	16ryy	.	.
16ryy	.	16ff#XLL 16dd#/	.	.
!LO:N:acc=n#	!	!	!	!
16cc#X>\LL	.	16ryy	.	.
16ryy	.	16ddn/JJ	.	.
16b-X>\JJ	.	16ryy	.	.
16ryy	.	16ffnLL 16dd/	.	.
!LO:N:acc=n#	!	!	!	!
16b#X>\LL	.	16ryy	.	.
16ryy	.	16cc#y/JJ	.	.
16a>\JJ	.	16ryy	.	.
!!LO:LB:g=original
=41	=41	=41	=41	=41
16ryy	.	16eeLL 16cc#X/	.	.
16bn>\LL	.	16ryy	.	.
16ryy	.	16ccn/JJ	.	.
16a-X>\JJ	.	16ryy	.	.
16ryy	.	16ee-XLL 16cc/	.	>
!LO:N:acc=n#	!	!	!	!
16a#X>\LL	.	16ryy	.	.
16ryy	.	16b/JJ	.	.
16g>\JJ	.	16ryy	.	.
16ryy	.	16ddLL 16b/	.	.
16g##X>\LL	.	16ryy	.	.
16ryy	.	16a#X/JJ	.	.
16f#X>\JJ	.	16ryy	.	.
16ryy	.	16cc#XLL 16a#/	.	.
!LO:N:acc=n#	!	!	!	!
16g#X>\LL	.	16ryy	.	.
16ryy	.	16an/JJ	.	.
16fn>\JJ	.	16ryy	.	.
=42	=42	=42	=42	=42
16ryy	.	16ccnLL 16a/	.	.
16f##X>\LL	.	16ryy	.	.
16ryy	.	16g#X/JJ	.	.
16e>\JJ	.	16ryy	.	.
16ryy	.	16bLL 16g#/	.	]
!LO:N:acc=n#	!	!	!	!
16f#X>\LL	.	16ryy	.	.
16ryy	.	16gn/JJ	.	.
16e-X>\JJ	.	16ryy	.	.
16ryy	.	16b-XLL 16g/	.	.
!LO:N:acc=n#	!	!	!	!
16e#X>\LL	.	16ryy	.	.
16ryy	.	16f#X/JJ	.	.
16d>\JJ	.	16ryy	.	.
16ryy	.	16aLL 16f#/	.	.
16en>\LL	.	16ryy	.	.
16ryy	.	16fn/JJ	.	.
16d-X>\JJ	.	16ryy	.	.
!!LO:LB:g=original
=43	=43	=43	=43	=43
16ryy	.	16a-XLL 16f/	.	.
!LO:N:acc=n#	!	!	!	!
16d#X>\LL	.	16ryy	.	.
16ryy	.	16e/JJ	.	.
16c>\JJ	.	16ryy	.	.
16ryy	.	16gLL 16e/	.	.
!LO:TX:t=P:problem:mixed beam	!	!	!	!
16c##X>\LL	.	16ryy	.	.
16ryy	.	16d#X/JJ	.	.
16B/JJ	.	16ryy	.	.
16ryy	.	16f#XLL 16d#/	.	.
!LO:TX:t=P:problem:mixed beam	!	!	!	!
!LO:N:acc=n#	!	!	!	!
16c#X>\LL	.	16ryy	.	.
16ryy	.	16dn/JJ	.	.
16B-X/JJ	.	16ryy	.	.
!	!	!LO:TX:t=P:problem:mixed beam	!	!LO:HP:a
4ryy	.	16fnLL 16d\	.	<
!	!	!LO:N:acc=n#	!	!
.	.	16B#X</	.	.
.	.	16c#y\	.	.
.	.	16A</JJ	.	.
=44	=44	=44	=44	=44
!	!	!LO:TX:t=P:problem:mixed beam	!	!
1ryy	.	16fLL 16d\	.	.
.	.	16B#X</	.	.
.	.	16c#X\	.	.
.	.	16A</JJ	.	.
!	!	!LO:TX:t=P:problem:mixed beam	!	!
.	.	16fLL 16d\	.	.
.	.	16Bn</	.	.
.	.	16cn\	.	.
.	.	16A</JJ	.	.
!	!	!LO:TX:t=P:problem:mixed beam	!	!
.	.	16fLL 16d\	.	.
.	.	16B</	.	.
.	.	16c\	.	.
.	.	16A</JJ	.	.
!	!	!LO:TX:t=P:problem:mixed beam	!	!
.	.	16fLL 16d\	.	.
.	.	16A#X</	.	[
.	.	16B\	.	.
.	.	16G#X</JJ	.	.
=45	=45	=45	=45	=45
!	!	!LO:TX:t=P:problem:mixed beam	!	!
1ryy	.	16fLL 16d\	.	.
.	.	16A#X</	.	.
.	.	16B\	.	.
.	.	16G#X</JJ	.	.
!	!	!LO:TX:t=P:problem:mixed beam	!	!
.	.	16fLL 16d\	.	.
.	.	16An</	.	.
!	!	!	!	!LO:HP:a
.	.	16B\	.	>
.	.	16G#</JJ	.	.
!	!	!LO:TX:t=P:problem:mixed beam	!	!
.	.	16fLL 16d\	.	.
.	.	16A</	.	.
!!LO:TX:a:i:t=rit.
.	.	16B\	.	.
.	.	16G#</JJ	.	.
!	!	!LO:TX:t=P:problem:mixed beam	!	!
.	.	16eLL 16d\	.	.
.	.	16A</	.	.
.	.	16B\	.	.
.	.	16G#X</JJ	.	]
!!LO:PB:g=original
=46	=46	=46	=46	=46
*^	*	*	*	*
!!LO:TX:a:i:t=a tempo
!	!	!	!	!	!LO:DY:t=%s agitato
8r	8ryy	.	(16A/LL	.	p
.	.	.	16c/	.	.
(8E/L	[4.AA\	.	16e/	.	.
.	.	.	16a/JJ	.	.
8D/	.	.	16g#X\LL	.	.
.	.	.	16b\	.	.
[8BB/J	.	.	16dd\	.	.
.	.	.	16ff\JJ	.	.
8BB/L]	2AA\_	.	16ee\LL	.	.
.	.	.	16cc\	.	.
8C/	.	.	16g#\	.	<
.	.	.	16b\JJ	.	.
8C#X/	.	.	16a/LL	.	.
.	.	.	16e/	.	.
8D/J	.	.	16B/	.	.
.	.	.	16d/JJ	.	.
=47	=47	=47	=47	=47	=47
8D#X/)	4AA\]	.	16c/LL	.	.
.	.	.	16e/	.	.
(4E/	.	.	16g#X/	.	.
.	.	.	16b/JJ	.	.
.	4AA\	.	16a/LL	.	.
.	.	.	16f/	.	.
[8F/)	.	.	16c#X/	.	.
.	.	.	16e/JJ	.	.
.	.	.	.	.	[
8F/L]	4.AA\	.	16d/LL	.	.
.	.	.	16f#X/	.	.
8F#X/J	.	.	16a/	.	.
.	.	.	16ccn/JJ	.	.
[4G/	.	.	16b/LL	.	.
.	.	.	16gn/	.	.
.	[8AA\	.	16d#X/	.	.
.	.	.	16f#/JJ	.	.
!!LO:LB:g=original
=48	=48	=48	=48	=48	=48
8G/L]	2AA\]	.	16e/LL	.	.
.	.	.	16g#X/	.	.
(8G#X/	.	.	16b/	.	.
.	.	.	16dd/JJ	.	.
8A/	.	.	16cc/LL	.	.
.	.	.	16b/	.	.
8B/J	.	.	16a/	.	.
.	.	.	16gn/JJ	.	.
8c\)	2ryy	.	16f#X\LL	.	.
.	.	.	16a\	.	.
!	!	!	!	!	!LO:DY:b=2
(4e\	.	.	16cc\	.	sf
.	.	.	16ee\JJ	.	.
.	.	.	16dd#X\LL	.	>
.	.	.	16cc\	.	.
8d#X\)	.	.	16b\	.	.
.	.	.	16a\JJ	.	.
*v	*v	*	*	*	*
=49	=49	=49	=49	=49
(16dn\LL	.	16g#X\LL	.	.
16E\J	.	16ff\	.	.
8BB-X\J)	.	16ee\	.	.
.	.	16gn\JJ	.	.
(16c\LL	.	16f#X\LL	.	.
16D\J	.	16ee-X\	.	.
8AA-X\J)	.	16dd\	.	.
.	.	16fn\JJ	.	]
(16A#X/LL	.	16cc#X/LL	.	.
16C#X/J	.	16en/	.	.
8FF#X/J)	.	16d#X/	.	.
.	.	16ccn/JJ	.	.
(16G#X/LL	.	16b/LL	.	.
16BBn/J	.	16dn/	.	.
8EE/J)	.	16g#X/	.	.
.	.	16B/JJ)	.	.
!!LO:LB:g=original
=50	=50	=50	=50	=50
(16AA\LL	.	8r	.	.
16C\	.	.	.	.
16E\	.	(8eL 8c/	.	.
16A\JJ	.	.	.	.
!	!	!	!	!LO:HP:b=2
16G#X\LL	.	8d'/)	.	<
16B\	.	.	.	.
16d\	.	8ffJ 8dd'/	.	.
16f\JJ	.	.	.	.
16e\LL	.	8r	.	.
16c\	.	.	.	.
16G#\	.	4e^>/	.	.
16B\JJ	.	.	.	.
16A\LL	.	.	.	.
16Gn\	.	.	.	.
16F\	.	[8a [8A^>/	.	[[
16E\JJ	.	.	.	.
=51	=51	=51	=51	=51
16F\LL	.	1a] 1A]	.	.
16E\	.	.	.	.
16D\	.	.	.	.
16C\JJ	.	.	.	.
16BB/LL	.	.	.	.
16AA/	.	.	.	.
16GG/	.	.	.	.
16FF/JJ	.	.	.	.
16GG/LL	.	.	.	.
16FF/	.	.	.	.
16EE/	.	.	.	.
16DD/JJ	.	.	.	.
16EE/LL	.	.	.	.
16DD/	.	.	.	.
16CC/	.	.	.	.
16BBB/JJ)	.	.	.	.
=52	=52	=52	=52	=52
!	!	!	!	!LO:DY:a:rj
2r	.	2.a 2.A/	.	sf
!	!	!	!	!LO:DY:b=2:rj
(16EE/LL	.	.	.	f
16DD/	.	.	.	.
16CC/	.	.	.	.
16BBB/JJ)	.	.	.	.
!	!	!	!	!LO:DY:a
4r	.	[4a [4A/	.	sf
!!LO:LB:g=original
=53	=53	=53	=53	=53
4r	.	1a_ 1A_	.	.
!!LO:TX:a:i:t=poco rit.
8EE^/	.	.	.	.
8r	.	.	.	.
8DD^/	.	.	.	.
8r	.	.	.	.
8FF^/	.	.	.	.
8r	.	.	.	.
=54	=54	=54	=54	=54
*	*	*^	*	*
4r	.	1a_ 1A]	4re	.	.
8E'\	.	.	8e'>\	.	.
!	!	!	!LO:TX:t=P:problem:-:dur=13e:ext=ud:problem:extention lines	!	!
8r	.	.	8re	.	.
8D'\	.	.	8d'>\	.	.
8r	.	.	8re	.	.
8F'\	.	.	8f'>\	.	.
8r	.	.	8re	.	.
*	*	*v	*v	*	*
=55||	=55||	=55||	=55||	=55||
*k[f#c#g#]	*	*k[f#c#g#]	*	*
*	*	*^	*	*
!	!	!	!	!	!LO:DY:t=%s legg.
4r	.	4raa	1a_	.	p
4e'\	.	4ee'</	.	.	.
4d'\	.	4dd'</	.	.	.
[4f#~\	.	[4ff#~</	.	.	.
=56	=56	=56	=56	=56	=56
8f#\L]	.	8ff#/L]	1a_	.	.
!!LO:TX:a:i:t=poco animando
8e'\	.	8ee'/	.	.	.
8d\	.	8dd'/	.	.	.
[8f#\J	.	[8ff#/J	.	.	.
8f#\L]	.	8ff#/L]	.	.	.
8e'\	.	8ee'/	.	.	.
8d'\	.	8dd'/	.	.	.
[8f#\J	.	[8ff#/J	.	.	.
!!LO:LB:g=original
=57	=57	=57	=57	=57	=57
(16f#\LL]	.	(16ff#/LL]	1a_	.	.
16e\	.	16ee/	.	.	.
!	!	!	!	!	!LO:HP:a
16d\	.	16dd/	.	.	<
16f#\JJ	.	16ff#/JJ	.	.	.
16e\LL	.	16ee/LL	.	.	.
16d\	.	16dd/	.	.	.
16f#\	.	16ff#/	.	.	.
16e\JJ	.	16ee/JJ	.	.	.
16d\LL	.	16dd/LL	.	.	.
16f#\	.	16ff#/	.	.	.
16e\	.	16ee/	.	.	.
16d\JJ	.	16dd/JJ	.	.	.
16f#\LL	.	16ff#/LL	.	.	.
16e\	.	16ee/	.	.	.
16d\	.	16dd/	.	.	[
16f#\JJ	.	16ff#/JJ	.	.	.
=58	=58	=58	=58	=58	=58
!	!	!	!	!	!LO:HP:a
16e\LL	.	16ee/LL	2a\_	.	>
16d\	.	16dd/	.	.	.
16f#\	.	16ff#/	.	.	.
16e\JJ	.	16ee/JJ	.	.	.
16d\LL	.	16dd/LL	.	.	.
16f#\	.	16ff#/	.	.	.
16e\	.	16ee/	.	.	]
16d\JJ	.	16dd/JJ	.	.	.
8f#\)	.	8ff#/)	2a;\]	.	pp
8r	.	8rff	.	.	.
4r;	.	4rff;	.	.	.
*	*	*v	*v	*	*
=59	=59	=59	=59	=59
*8ba	*	*	*	*
!!LO:TX:a:i:t=a tempo animato
4AAA 4AAAA/	.	4r	.	ff
*X8ba	*	*	*	*
[4e 4c# [4E\	.	(4eee [4aa (4ee\	.	.
8e] 8B 8E\]	.	8ddd) 8aa] 8dd\)	.	.
8r	.	8r	.	.
4e 4d 4E'\	.	4fff# 4aa 4ff#'\	.	.
=60	=60	=60	=60	=60
4.e 4.c# 4.E~\	.	4.eee 4.aa 4.ee~\	.	.
8B'\	.	8dd 8e'/	.	.
4A'\	.	4cc# 4e'/	.	.
4G#'\	.	4b 4e'/	.	.
!!LO:PB:g=original
=61	=61	=61	=61	=61
*^	*	*^	*	*
2F#\	2ryy	.	(4a/	2e\	.	.
!!LO:TX:a:i:t=poco slargato
.	.	.	4e/	.	.	.
[2A/	(4BB\	.	4.f#/	2d#X\	.	.
.	4BB#X\)	.	.	.	.	.
.	.	.	8a/)	.	.	.
*v	*v	*	*	*	*	*
=62	=62	=62	=62	=62	=62
2A] 2C#\	.	(4a 4e/	2e\	.	>
.	.	2.e/)	.	.	.
2A 2E 2BB\	.	.	2dn\	.	.
.	.	.	.	.	]
=63	=63	=63	=63	=63	=63
!!LO:TX:a:i:t=a tempo
4AAA/	.	4r	4ryy	.	p
(4c#\	.	(4ee [4a/	[2.e\	.	.
8B\)	.	8dd 8a/])	.	.	.
8r	.	8rdd	.	.	.
4d'\	.	4ff# 4a'/	.	.	.
=64	=64	=64	=64	=64	=64
(4.c#\	.	(4.ee/	2.a 2.e\]	.	.
8B'\	.	8dd'/	.	.	.
4A'\)	.	4cc#'/)	.	.	.
!!LO:TX:a:i:t=poco slargato
4G#'\	.	4b 4e'>/	4ryy	.	.
=65	=65	=65	=65	=65	=65
2F#\	.	(4a/	2e\	.	.
.	.	4e/	.	.	.
[2Fn\	.	4.fn/	2d#X\	.	.
.	.	8a/)	.	.	.
=66	=66	=66	=66	=66	=66
4F\]	.	(4a/	1dn	.	.
!	!	!	!	!	!LO:HP:b=2
(4E\	.	2.e/)	.	.	<
4.F#X\	.	.	.	.	.
8G#\)	.	.	.	.	.
.	.	.	.	.	[
=67	=67	=67	=67	=67	=67
!!LO:TX:a:i:t=a tempo
!	!	!	!	!	!LO:DY:t=%s con grazia.
4r	.	(4.f#/	2.e 2.d\	.	p
4E'\	.	.	.	.	.
.	.	8g#/	.	.	.
4AA'/	.	4a/)	.	.	.
4r	.	4cc# 4e 4c#'>/	4ryy	.	.
!!LO:LB:g=original
=68	=68	=68	=68	=68	=68
4r	.	(4.f#/	2.e 2.d\	.	.
4E'\	.	.	.	.	.
.	.	8g#/	.	.	.
4AA'/	.	4a/)	.	.	.
4r	.	4cc# 4e 4c#'>/	4ryy	.	.
=69	=69	=69	=69	=69	=69
4r	.	4f#'/	2ryy	.	.
4d: 4BB:\	.	4ff# 4dd 4a 4f#'/	.	.	.
4r	.	4rdd	[2e\	.	.
4B 4E\	.	4ee 4dd 4g#/	.	.	.
=70	=70	=70	=70	=70	=70
*^	*	*	*	*	*
4r	2ryy	.	(2.cc#/	2e\]	.	.
(2C#/	.	.	.	.	.	.
.	4AA\)	.	.	2d#X\	.	.
4r	4ryy	.	4a/)	.	.	.
*v	*v	*	*	*	*	*
=71	=71	=71	=71	=71	=71
4r	.	(4.f#/	2.e 2.dn\	.	.
4B'\	.	.	.	.	.
.	.	8g#/	.	.	.
4E'\	.	4a/)	.	.	.
4AA'/	.	4cc# 4e 4c#'>/	4ryy	.	.
=72	=72	=72	=72	=72	=72
4r	.	(4.f#/	2.e 2.d\	.	.
4B'\	.	.	.	.	.
.	.	8g#/	.	.	.
4E'\	.	4a/)	.	.	.
4AA'/	.	4cc# 4e#X 4c#'>/	4ryy	.	.
=73	=73	=73	=73	=73	=73
4r	.	4f#/	4ryy	.	.
!	!	!LO:TX:a:i:t=m.s.	!	!	!
4d:: 4BB::\	.	4fff#/	4ff#:: 4dd:: 4a:: 4f#::\	.	.
!!LO:TX:a:i:t=slentando
4r	.	2ee#X~/	4re	.	.
4c# 4C#\	.	.	4g# 4e#X\	.	.
=74	=74	=74	=74	=74	=74
4r	.	(2.cc#/	4r	.	.
2.d 2.E\	.	.	2.g# 2.en\	.	.
.	.	4b/)	.	.	.
*	*	*v	*v	*	*
!!LO:LB:g=original
=75	=75	=75	=75	=75
!!LO:TX:a:i:t=a tempo
!LO:TX:b:i:t=poco marcato	!	!LO:TX:b:i:t=leggiero	!	!
4e'\	.	8r	.	.
.	.	8fn'/L	.	.
4e'\	.	8f#X'/	.	.
.	.	8a'/J	.	.
(4.d\	.	8g#'\L	.	.
.	.	8a'\	.	.
.	.	8b'\	.	.
8f#\)	.	8eeJ 8dd'\	.	.
=76	=76	=76	=76	=76
*	*	*Xbrackettup	*	*
!	!	!LO:TUP:b:problem:klamra łukowa	!	!
(4.e\	.	12r	.	.
.	.	(12cc#\L	.	.
.	.	12dd\J	.	.
!	!	!LO:TUP:b:problem:klamra łukowa	!	!
.	.	12dd#X\L	.	.
.	.	12ee\	.	.
8d\	.	.	.	.
.	.	12aaJ 12ff#\)	.	.
*	*	*Xtuplet	*	*
4c#\	.	12r	.	.
.	.	(12e/L	.	.
.	.	12f#/J	.	.
4B\	.	12ddnL 12g#/	.	.
.	.	12a/	.	.
.	.	12b/J)	.	.
=77	=77	=77	=77	=77
*^	*	*	*	*
!	!	!	!LO:TX:b:i:t=poco-a-poco-accelerando-e:dur=4q:ext=cd:problem:text with extention lines	!	!
4A\)	4ryy	.	12r	.	.
.	.	.	(12c#/L	.	.
.	.	.	12e/J	.	.
(4E/	2.AA\	.	12eeL 12cc#\	.	.
.	.	.	12b\	.	.
.	.	.	12a\J)	.	.
4.F#/	.	.	12r	.	.
.	.	.	(12f#/L	.	.
.	.	.	12a/J	.	.
.	.	.	12aaL 12ff#\	.	.
.	.	.	12ee\	.	.
8A/)	.	.	.	.	.
.	.	.	12dd\J)	.	.
!!LO:LB:g=original
=78	=78	=78	=78	=78	=78
!	!	!	!	!	!LO:DY:t=rinforzando
(4A\	4ryy	.	12r	.	rfz
.	.	.	(12cc#\L	.	.
.	.	.	12ee\J	.	.
4E/	[2.AA\	.	12eeeL 12ccc#\	.	.
.	.	.	12bb\	.	.
.	.	.	12aa\J)	.	.
4.F#/	.	.	12r	.	.
*	*	*	*8va	*	*
.	.	.	(12ff#/L	.	.
.	.	.	12aa/J	.	.
.	.	.	12eeeL 12ddd\	.	.
.	.	.	12ccc#\	.	.
8G#/	.	.	.	.	.
.	.	.	12bb\J)	.	.
=79	=79	=79	=79	=79	=79
4E/	1AA]	.	(12ccc#\L	.	.
.	.	.	12eee\	.	.
.	.	.	12aaa\J	.	.
4C#/	.	.	12eeeeL 12cccc#\	.	.
.	.	.	12bbb\	.	.
.	.	.	12aaa\J)	.	.
4D/	.	.	(12aaaL 12fff#\	.	.
.	.	.	12eee\	.	.
.	.	.	12ddd\J)	.	.
4E/	.	.	(12eeeL 12ddd\	.	.
.	.	.	12ccc#\	.	.
.	.	.	12bb\J)	.	.
*v	*v	*	*	*	*
=80	=80	=80	=80	=80
4C#/	.	(12eeeL 12bb\	.	.
.	.	12aa\	.	.
.	.	12gg#\J)	.	.
!	!	!LO:TX:b:i:t=quasi slarg.	!	!
4AA/	.	(12ccc#L 12aa/	.	.
.	.	12gg#/	.	.
.	.	12ggn/J)	.	.
4BB/	.	(12dddL 12ff#/	.	.
.	.	12gg#X/	.	.
.	.	12ff#/J)	.	.
4C#/)	.	(12ccc#L 12ee#X/	.	.
.	.	12ff#/	.	.
.	.	12gg#/J)	.	.
*	*	*X8va	*	*
!!LO:LB:g=original
=81	=81	=81	=81	=81
*	*	*^	*	*
*Xtuplet	*	*	*	*	*
!	!	!LO:TX:a:i:t=espress.	!	!	!LO:DY:t=poco %s con anima
12r	.	(4ff#\	2ryy	.	f
(12FF#/L	.	.	.	.	.
12C#/J	.	.	.	.	.
12A\L	.	4cc#\	.	.	.
12G#\	.	.	.	.	.
12F#\J	.	.	.	.	.
12G#\L	.	4.dd/	4b\	.	.
12A\	.	.	.	.	.
12B\J	.	.	.	.	.
12d\L	.	.	4g#\	.	.
12c#\	.	.	.	.	.
.	.	8ff#/)	.	.	.
12B\J)	.	.	.	.	.
=82	=82	=82	=82	=82	=82
12r	.	(4ff#/	2a\	.	.
(12FF#/L	.	.	.	.	.
12C#/J	.	.	.	.	.
12A\L	.	4cc#/	.	.	.
12G#\	.	.	.	.	.
!	!	!	!	!	!LO:HP:b=2
12F#\J	.	.	.	.	<
12G#\L	.	4dd/	4b\	.	.
12A\	.	.	.	.	.
12B\J	.	.	.	.	[
4c#\)	.	4ee/	4g#\	.	.
*	*	*v	*v	*	*
=83	=83	=83	=83	=83
12r	.	4cc# 4a/	.	.
(12FF#/L	.	.	.	.
12C#/J	.	.	.	.
12A\L	.	4a 4f#/	.	.
12G#\	.	.	.	.
12F#\J	.	.	.	.
12G#\L	.	4b 4g#/	.	.
12A\	.	.	.	.
12B\J	.	.	.	.
12d\L	.	4cc# 4e#X/	.	.
12c#\	.	.	.	.
12B\J)	.	.	.	.
=84	=84	=84	=84	=84
12r	.	4a 4f#/	.	.
(12FF#/L	.	.	.	.
12C#/J	.	.	.	.
!	!	!LO:TX:a:i:t=poco a poco	!	!
12A\L	.	4f#/	.	.
12G#\	.	.	.	.
12F#\J)	.	.	.	.
2r	.	4.d 4.B/	.	.
.	.	8f# 8G#/)	.	.
!!LO:PB:g=original
=85	=85	=85	=85	=85
*^	*	*^	*	*
*Xbrackettup	*	*	*	*	*	*
*tuplet	*Xtuplet	*	*	*	*	*
!!LO:TX:a:i:t=calando e dim.
!LO:TUP:a:problem:klamra łukowa	!	!	!	!	!	!LO:DY:a
12r	12ryy	.	(4f#/	2A\	.	>
12FF#/L	[6FF#\	.	.	.	.	.
[12C#/J	.	.	.	.	.	.
2.C#] 2.FF#/]	2.ryy	.	4c#/	.	.	.
.	.	.	4d 4B/	2ryy	.	.
.	.	.	4e 4G#/)	.	.	.
=86	=86	=86	=86	=86	=86	=86
2r	2ryy	.	(4f#/	2A\	.	]
.	.	.	4c#/	.	.	.
*tuplet	*Xtuplet	*	*	*	*	*
!LO:TUP:a:problem:klamra łukowa	!	!	!	!	!	!
12r	12ryy	.	4.d/	4B\	.	.
12EE/L	[6EE\	.	.	.	.	.
[12BB/J	.	.	.	.	.	.
4BB] 4EE/]	4ryy	.	.	4G#\	.	.
.	.	.	8f#/)	.	.	.
*v	*v	*	*	*	*	*
*	*	*v	*v	*	*
=87	=87	=87	=87	=87
!!LO:TX:a:i:t=rit.
8r	.	(>2f# 2c# 2A/	.	p
4AAA/	.	.	.	.
[8AA/	.	.	.	.
4AA/]	.	2c#/)	.	.
!LO:TX:a:i:t=espress.	!	!	!	!
(4E~\	.	.	.	.
=88	=88	=88	=88	=88
*^	*	*	*	*
!!LO:TX:a:i:t=a tempo, tranquillo
4.F#/	4rGG	.	8r	.	.
.	.	.	(8d/L	.	.
.	4BB\	.	8e/	.	.
8G#/	.	.	8eeJ 8dd/)	.	.
4A/	4rGG	.	8r	.	.
.	.	.	(8cc#\L	.	.
4c#::/)	4AA::\	.	8ee\	.	.
.	.	.	8eeeJ 8aa\)	.	.
!!LO:LB:g=original
=89	=89	=89	=89	=89	=89
(4.F#/	4r	.	8r	.	.
.	.	.	(8d/L	.	.
.	4BB\	.	8e/	.	.
8G#/	.	.	8eeJ 8dd/)	.	.
4A/	4rGG	.	8r	.	.
.	.	.	(8cc#\L	.	.
4c#::/)	4AA::\	.	8ee\	.	.
.	.	.	8eeeJ 8aa\)	.	.
=90	=90	=90	=90	=90	=90
4F#'/	4r	.	8r	.	.
.	.	.	(8A/L	.	.
4F#'/	4BB\	.	8f# 8d/)	.	.
.	.	.	8ee/J	.	.
2E~/	4rEE	.	8r	.	.
.	.	.	(8G#/L	.	.
.	4EE\	.	8e 8d/)	.	.
.	.	.	8ee/J	.	.
=91	=91	=91	=91	=91	=91
2.C#/	4ryy	.	8r	.	.
.	.	.	(8A/L	.	.
.	(4EE\	.	8e 8c#/)	.	.
.	.	.	[8ee/J	.	.
.	4AAA\)	.	8ee/L]	.	.
.	.	.	(8c#/	.	.
4r	4r	.	8e/	.	.
.	.	.	8fn/J)	.	.
*v	*v	*	*	*	*
=92||	=92||	=92||	=92||	=92||
*k[b-e-]	*	*k[b-e-]	*	*
*	*	*^	*	*
!	!	!LO:TX:a:i:t=espress.	!	!	!
8r	.	(4.g/	[2f 2e-\	.	.
(8c\L	.	.	.	.	.
8F\	.	.	.	.	.
8BB-\J)	.	8a/	.	.	.
8r	.	4b-/	2f] 2d\	.	.
!	!	!LO:TX:t=poco-cresc. e string.:ext=s:problem:text with extention lines	!	!	!
(8BBB-/L	.	.	.	.	<
8FF/	.	4dd/)	.	.	.
8D/J)	.	.	.	.	.
!!LO:LB:g=original
=93	=93	=93	=93	=93	=93
8r	.	(4.g/	(2f 2e-\	.	.
(8c\L	.	.	.	.	.
8F\	.	.	.	.	.
8BB-\J)	.	8a/	.	.	.
8r	.	4b-/	2f 2d\)	.	.
(8BBB-/L	.	.	.	.	.
8FF/	.	4dd/)	.	.	[
8D/J)	.	.	.	.	.
=94	=94	=94	=94	=94	=94
8r	.	(4b-/	2f#X 2d\	.	.
(8BB-\L	.	.	.	.	.
8F#X\	.	4dd/)	.	.	.
8d\J)	.	.	.	.	.
8r	.	(4ee-/	2b- 2g\	.	.
(8C\L	.	.	.	.	.
8G\	.	4gg/)	.	.	.
8e-\J)	.	.	.	.	.
=95	=95	=95	=95	=95	=95
8r	.	2bb-/	(>4eeen 4een\	.	.
(8C#X\L	.	.	.	.	.
8G\	.	.	4ggg 4gg\)	.	.
8en\J)	.	.	.	.	.
!!LO:TX:a:i:t=a tempo
8r	.	(4.bn/	[2a [2g\	.	p
8e'\L	.	.	.	.	.
8A'\	.	.	.	.	.
8D'\J	.	8cc#X/	.	.	.
=96	=96	=96	=96	=96	=96
*	*	*	*^	*	*
8r	.	4dd/	4g\]	2a\]	.	.
8DD'/L	.	.	.	.	.	.
8AA'/	.	4ff#X/)	4f#X\	.	.	.
8D'/J	.	.	.	.	.	.
8r	.	(4.bn/	2ryy	[<2a [<2g\	.	.
!	!	!LO:TX:t=poco-cresc. e string.:ext=s:problem:text with extention lines	!	!	!	!
8en'\L	.	.	.	.	.	<
8A'\	.	.	.	.	.	.
8D'\J	.	8cc#X/	.	.	.	.
*	*	*	*v	*v	*	*
!!LO:LB:g=original
=97	=97	=97	=97	=97	=97
8r	.	4dd 4g/]	2a\]	.	.
8DD'/L	.	.	.	.	.
8AA'/	.	4ff#X 4f#X/)	.	.	.
8D'/J	.	.	.	.	.
8r	.	(4dd/	2b-X 2f#\	.	.
8D'\L	.	.	.	.	.
8B-'\	.	4ff#/)	.	.	[
8d'\J	.	.	.	.	.
=98	=98	=98	=98	=98	=98
8r	.	(4dd/	2b- 2g\	.	.
8EE-'/L	.	.	.	.	.
8BB-'/	.	4gg/)	.	.	.
8G'/J	.	.	.	.	.
*	*	*8va	*	*	*
!	!	!LO:TX:b:i:t=rit.	!	!	!
8r	.	2ddd/	(>4ggg 4gg\	.	.
8En\L	.	.	.	.	.
8B-\	.	.	4bbb- 4bb-\)	.	.
*	*	*X8va	*	*	*
8g\J	.	.	.	.	.
=99	=99	=99	=99	=99	=99
!	!	!LO:TX:a:i:t=a tempo	!	!	!
4r	.	4rff	[1f^	.	f
4d'\	.	4ff 4b-'/	.	.	.
4c'\	.	4ee- 4b-'/	.	.	.
4e-'\	.	4gg 4b-'/	.	.	.
=100	=100	=100	=100	=100	=100
4r	.	4r	1f_	.	.
4d'\	.	4ff 4b-'/	.	.	p
4c'\	.	4ee- 4b-'/	.	.	.
4e-'\	.	4gg 4b-'/	.	.	.
=101	=101	=101	=101	=101	=101
*	*	*	*^	*	*
(4.d\	.	(4.ff/	1f_	2.b-/	.	.
8c\	.	8ee-/	.	.	.	.
4B-\)	.	4dd'/)	.	.	.	.
4A'\	.	4cc'/	.	4ryy	.	.
!!LO:LB:g=original
=102	=102	=102	=102	=102	=102	=102
(4.d\	.	(4.ff/	1f_	2.b-/	.	.
*	*	*tuplet	*	*	*	*
8c\	.	24ee-/LL	.	.	.	.
.	.	24ff/	.	.	.	.
.	.	24ee-/JJ)	.	.	.	.
4B-\)	.	4dd'/	.	.	.	.
!	!	!LO:TX:b:i:t=poco rinf. e slarg.-:dur=8q:ext=ud:problem:text with extention lines	!	!	!	!
4A\	.	4cc'/	.	4ryy	.	.
*	*	*	*v	*v	*	*
=103	=103	=103	=103	=103	=103
2G\	.	(4b-/	2f\]	.	.
.	.	4f/	.	.	.
[2G-X\	.	4.g-X/	2f-X\	.	.
.	.	8b-/)	.	.	.
=104	=104	=104	=104	=104	=104
4G-\]	.	(4b-/	2e-X\	.	.
2F\	.	4f/	.	.	.
.	.	4.g-X/	2d\	.	.
4En\	.	.	.	.	.
.	.	8b-/)	.	.	.
=105	=105	=105	=105	=105	=105
!	!	!LO:TX:a:i:t=espress.	!	!	!
[1F [1BB-	.	(4b-/	2d-X\	.	.
.	.	4f/	.	.	.
.	.	4.g-X 4.e-/	2ryy	.	.
.	.	8a-X 8c/	.	.	.
=106	=106	=106	=106	=106	=106
*	*	*	*	*	*^
2F] 2BB-\]	.	4b-/	2dn\	.	.	.
.	.	4f/	.	.	>	.
!	!	!	!	!	!	!LO:DY:b=2:rj
[2FF [2BBB-/	.	4.gn 4.e-/	2ryy	.	.	p
.	.	8an 8c/	.	.	]	.
*	*	*	*	*	*v	*v
!!LO:PB:g=original
=107	=107	=107	=107	=107	=107
!	!	!	!	!	!LO:HP:a
1FF_ 1BBB-_	.	4b-/	2d\	.	<
.	.	4f/	.	.	.
.	.	4g-X 4e-/	2ryy	.	.
.	.	4a-X 4c/	.	.	[
=108	=108	=108	=108	=108	=108
!	!	!	!	!	!LO:HP:a
2FF] 2BBB-/]	.	4f 4d/	2ryy	.	>
!	!	!LO:TX:b:i:t=rit.	!	!	!
.	.	.	.	.	.
.	.	2b- 2B-/	.	.	.
2F;\	.	.	4gn [4e-\	.	]
.	.	4an 4e-] 4c;/)	4ryy	.	.
*	*	*v	*v	*	*
=109||	=109||	=109||	=109||	=109||
*k[]	*	*k[]	*	*
*	*	*^	*	*
*8ba	*	*	*	*	*
!!LO:TX:a:i:t=a tempo. poco meno mosso
!	!	!	!	!	!LO:DY:rj
8AAA 8AAAA/	.	(16A/LL	8ryy	.	p
*X8ba	*	*	*	*	*
.	.	16c/	.	.	.
!LO:TX:b:i:t=poco marc.	!	!	!	!	!
(8E\L	.	16e/	8e\	.	.
.	.	16a/JJ	.	.	.
8d 8D\)	.	16g#X\LL	4ryy	.	.
.	.	16b\	.	.	.
8fJ 8F'\	.	16dd\	.	.	.
.	.	16ff\JJ	.	.	.
(8.eL 8.E\	.	16ee\LL	2ryy	.	.
.	.	16cc\	.	.	.
.	.	16g#\	.	.	.
16dK 16D\	.	16b\JJ	.	.	.
8c 8C'\)	.	16a/LL	.	.	.
.	.	16e/	.	.	.
8BJ 8BB'\	.	16B/	.	.	.
.	.	16d/JJ	.	.	.
*	*	*v	*v	*	*
!!LO:LB:g=original
=110	=110	=110	=110	=110
8AL 8AA'/	.	16c/LL	.	.
.	.	16e/	.	.
(8EE/	.	16g#X/	.	.
.	.	16b/JJ	.	.
8.FF/	.	16a/LL	.	.
.	.	16f/	.	.
.	.	16c#X/	.	.
16AA/Jk)	.	16e/JJ	.	.
!	!	!	!	!LO:HP:t=poco a poco cresc. e string.
8AA/L	.	16d/LL	.	<
.	.	16f#X/	.	.
8F#X 8FF#X/	.	16a/	.	.
.	.	16ccn/JJ	.	.
(8.G 8.GG/	.	16b/LL	.	.
.	.	16gn/	.	.
.	.	16d#X/	.	.
16BJk 16BB/)	.	16f#/JJ	.	.
=111	=111	=111	=111	=111
8BL 8BB'/	.	16e/LL	.	.
.	.	16g#X/	.	.
8GG#X 8GGG#X/	.	16b/	.	.
.	.	16dd/JJ	.	.
(8.AA 8.AAA/	.	16cc/LL	.	.
.	.	16b/	.	.
.	.	16a/	.	.
16CJk 16CC/)	.	16gn/JJ	.	.
8C 8CC/	.	16f#X\LL	.	.
.	.	16a\	.	.
!	!	!	!	!LO:DY:b=2
(4gn 4Gn\	.	16cc\	.	sf
.	.	16ee\JJ	.	.
.	.	16dd#X\LL	.	.
.	.	16cc\	.	.
8f 8F\)	.	16b\	.	.
.	.	16a\JJ	.	.
!!LO:LB:g=original
=112	=112	=112	=112	=112
!LO:TX:t=P:problem:mixed beam	!	!	!	!
8eL 8E\	.	16g#X\LL	.	.
.	.	16ff\	.	.
(16EEE^/L	.	16ee\	.	.
16EE/JJ	.	16gn\JJ	.	<
16EE#X/LL	.	16f#X\LL	.	.
16FF#X/	.	16ee-X\	.	.
16GG/	.	16dd\	.	.
16GG#X/JJ	.	16fn\JJ	.	.
16AA/LL	.	16cc#X/LL	.	.
16AA#X/	.	16e/	.	.
16BB/	.	16d#X/	.	.
16C/JJ	.	16ccn/JJ	.	.
16C#X/LL	.	16b/LL	.	[
16D/	.	16dn/	.	.
16D#X/	.	16g#X/	.	.
16E/JJ)	.	16B/JJ)	.	.
=113	=113	=113	=113	=113
!!LO:TX:a:i:t=in tempo
(16AALL 16AAA^/	.	8r	.	f
16C/	.	.	.	.
16E/	.	(8eeL 8cc 8e\	.	.
16A/JJ	.	.	.	.
16G#X\LL	.	8dd 8b 8d\)	.	.
16B\	.	.	.	.
16d\	.	8fffJ 8ddd 8ff'\	.	.
16f\JJ	.	.	.	.
16e\LL	.	(8.eeeL 8.ccc 8.ee\	.	.
16c\	.	.	.	.
16G#\	.	.	.	.
16B\JJ	.	16dddK 16bb 16dd\	.	.
16A\LL	.	8ccc 8aa 8cc\)	.	.
16E\	.	.	.	.
16BB\	.	8bbJ 8gg#X 8b\	.	.
16D\JJ	.	.	.	.
!!LO:LB:g=original
=114	=114	=114	=114	=114
16C\LL	.	8aaL 8ee 8a\	.	.
16E\	.	.	.	.
16G#X\	.	8ee 8e\	.	.
16B\JJ	.	.	.	.
16A\LL	.	(8.ff 8.f\	.	.
16F\	.	.	.	.
16C#X\	.	.	.	.
16E\JJ	.	16aaJk 16a\)	.	.
16D\LL	.	8aaL 8ff#X 8a'\	.	.
16F#X\	.	.	.	.
16A\	.	8ff# 8f#X\	.	.
16cn\JJ	.	.	.	.
16B\LL	.	(8.gg 8.g\	.	.
16Gn\	.	.	.	.
16D#X\	.	.	.	.
16F#\JJ	.	16bbJk 16b\)	.	.
=115	=115	=115	=115	=115
*	*	*^	*	*
16E\LL	.	8bbL 8gg#X 8b'\	2ryy	.	.
16G#X\	.	.	.	.	.
16B\	.	(8gg# 8g#X\	.	.	.
16d\JJ	.	.	.	.	.
16c\LL	.	8.aa 8.a\)	.	.	.
16B\	.	.	.	.	.
16A\	.	.	.	.	.
16Gn\JJ	.	16cccJk 16cc\	.	.	.
16F#X\LL	.	8ccc 8cc\	8ryy	.	.
16A\	.	.	.	.	.
16c\	.	(8ee/L	4cc\	.	.
16e\JJ	.	.	.	.	.
!	!	!LO:SIC:v:o=8gg#/J)	!	!	!
16d#X\LL	.	8ggn/J)	.	.	.
16c\	.	.	.	.	.
16B\	.	(8dd#X/	[8cc\	.	.
16A\JJ	.	.	.	.	.
!!LO:LB:g=original
=116	=116	=116	=116	=116	=116
16G#X\LL	.	8ff/L)	8cc\]	.	.
16f\	.	.	.	.	.
16e\	.	(8cc#X/	4b-X\	.	.
16Gn\JJ	.	.	.	.	.
16F#X\LL	.	8ee-X/)	.	.	.
16e-X\	.	.	.	.	.
16d\	.	8bn/J	8a-X\	.	.
16Fn\JJ)	.	.	.	.	.
(16BB\LL	.	8r	8ryy	.	.
16D\	.	.	.	.	.
16F\	.	4.ff/	(>8aanL 8an\	.	.
16A\JJ	.	.	.	.	.
!	!	!	!LO:SIC:v:o=8ccc 8cc#\	!	!
16G#X\LL	.	.	8ccc 8cc\	.	.
16A\	.	.	.	.	.
16B\	.	.	8gg#XJ 8g#X\)	.	.
16c\JJ	.	.	.	.	.
*clefG2	*	*	*	*	*
=117	=117	=117	=117	=117	=117
16B/LL	.	8r	8ryy	.	.
16d/	.	.	.	.	.
16f/	.	(8aa/L	[4.ff\	.	.
16a/JJ	.	.	.	.	.
16g#X/LL	.	8ccc/	.	.	.
16f/	.	.	.	.	.
16e/	.	8gg#X/J	.	.	.
16d/JJ	.	.	.	.	.
16c/LL	.	8bb 8ff'\])	2ryy	.	.
16e/	.	.	.	.	.
16g#/	.	4eee 4ee\	.	.	.
16b/JJ	.	.	.	.	.
16a/LL	.	.	.	.	.
16g#/	.	.	.	.	.
*	*	*8va	*	*	*
16gn/	.	[8eeee [8eee\	.	.	.
16f#X/JJ	.	.	.	.	.
*clefF4	*	*	*	*	*
!!LO:PB:g=original
=118	=118	=118	=118	=118	=118
8fn\L)	.	8ryy	16eeee]LL 16eee\]	.	.
.	.	.	16ddd#X\	.	.
(8B\	.	[8fff/L	16dddn\	.	.
.	.	.	16ccc#X\JJ	.	.
8e\)	.	16fff/Jk]	16cccn\LL	.	>
.	.	16r	16bb\	.	.
(8B-X\J	.	[8ddd/L	16bb-X\	.	.
.	.	.	16aa\JJ	.	.
8d\L)	.	16ddd/Jk]	16gg#X\LL	.	.
.	.	16rfff	16ggn\	.	.
(8A\	.	[8aa/L	16ff#X\	.	.
.	.	.	16ffn\JJ	.	.
8c\)	.	16aa/K]	16ee\LL	.	]
.	.	16r	16dd#X\	.	.
8G#X\J	.	(8ff/J	16ddn\	.	.
.	.	.	16cc#X\JJ	.	.
*	*	*X8va	*	*	*
*	*	*v	*v	*	*
=119	=119	=119	=119	=119
(16AA\LL	.	16ee 16ccn\)	.	p
16C\	.	16r	.	.
!	!	!	!	!LO:HP:b=2
16E\	.	(>8eL 8c/	.	<
16A\JJ	.	.	.	.
16G#X\LL	.	8f/	.	.
16B\	.	.	.	.
16d\	.	8b/J)	.	[
16f\JJ	.	.	.	.
16e\LL	.	8r	.	.
16c\	.	.	.	.
16G#\	.	8e 8d'/	.	.
16B\JJ	.	.	.	.
8A\L)	.	16r	.	.
.	.	(16c#X/LL	.	.
8EJ 8AA\	.	16a 16gn/	.	.
.	.	16a/JJ	.	.
!!LO:LB:g=original
=120	=120	=120	=120	=120
*^	*	*	*	*
16D\	8ryy	.	16aa 16ff\)	.	.
16r	.	.	16r	.	.
(8AA/L	[4.DD\	.	(>16F/LL	.	.
!	!	!	!	!	!LO:HP:a
.	.	.	16d/JJ	.	<
8GGn/	.	.	16c#X/LL	.	.
.	.	.	16e/	.	.
[8EE/J	.	.	16g/	.	[
.	.	.	16b-X/JJ	.	.
8EE/]	2DD\]	.	16a/LL	.	.
.	.	.	16f/	.	.
4FF/	.	.	16c#/	.	.
.	.	.	16e/JJ	.	.
.	.	.	16d/LL	.	.
.	.	.	16cn/	.	.
8FF#X/)	.	.	16B/	.	.
.	.	.	16A/JJ)	.	.
*v	*v	*	*	*	*
=121	=121	=121	=121	=121
(<16GGLL 16GGG/	.	8r	.	.
!	!	!	!	!LO:HP:b=2
16BB/	.	.	.	<
16D/	.	(>8dL 8B/	.	.
16G/JJ	.	.	.	.
16F#X\LL	.	8e-X/	.	.
16A\	.	.	.	.
16c\	.	8a/J)	.	.
16e-X\JJ	.	.	.	[
16d\LL	.	8r	.	.
16B\	.	.	.	.
16F#\	.	8d 8c'/	.	.
16A\JJ	.	.	.	.
8G'/L)	.	16r	.	.
.	.	(>16B/LL	.	.
8DJ 8GG'/	.	16g 16fn/	.	.
.	.	16g/JJ	.	.
!!LO:LB:g=original
=122	=122	=122	=122	=122
*^	*	*	*	*
8C^/L	8rEE	.	16ggLL 16ee^>/)	.	.
!	!	!	!	!	!LO:DY:rj
.	.	.	(16c/	.	p <
(8GG/J	4.CC\	.	16e/	.	.
!	!	!	!	!	!LO:HP:a=2
.	.	.	.	.	<
.	.	.	16cc/JJ	.	.
4AA-X/)	.	.	16b\LL	.	[
.	.	.	16dd\	.	.
.	.	.	16ff\	.	.
.	.	.	16aa-X\JJ)	.	.
8r	8ryy	.	(16c/LL	.	.
.	.	.	16e/	.	.
(8G/	4.C\	.	16g/	.	.
!	!	!	!	!	!LO:HP:a=2
.	.	.	.	.	<
.	.	.	16cc/JJ	.	.
4A-X/)	.	.	16dd\LL	.	[
.	.	.	16ff\	.	.
.	.	.	16bb\	.	.
.	.	.	16ddd\JJ)	.	[[
=123	=123	=123	=123	=123	=123
8r	8ryy	.	(16c/LL	.	.
.	.	.	16e/	.	.
(8GG/	4.CC\	.	16g/	.	.
.	.	.	16cc/JJ	.	.
4AA-X/)	.	.	16b\LL	.	.
.	.	.	16dd\	.	.
.	.	.	16ff\	.	.
.	.	.	16bbJJ 16aa-X\)	.	.
8r	8ryy	.	(16e/LL	.	.
.	.	.	16g/	.	.
(8G/	4.C\	.	16cc/	.	.
.	.	.	16ee/JJ	.	.
4A-X/)	.	.	16ff\LL	.	.
.	.	.	16bb\	.	.
.	.	.	16ddd\	.	.
.	.	.	16fff\JJ)	.	.
!!LO:LB:g=original
=124	=124	=124	=124	=124	=124
8r	8ryy	.	(16c/LL	.	<
.	.	.	16e/	.	.
(8GG/L	4.CC\	.	16g/	.	.
.	.	.	16cc/JJ	.	.
8AA-X/	.	.	16b\LL	.	.
.	.	.	16dd\	.	.
8D/J)	.	.	16ff\	.	.
.	.	.	16aa-X\JJ	.	.
8r	8ryy	.	16gg\LL	.	.
.	.	.	16ee\	.	.
(8G/L	4.C\	.	16b\	.	[
.	.	.	16dd\JJ	.	.
8G#X/	.	.	16cc\LL	.	.
.	.	.	16b\	.	.
8An/J)	.	.	16ee 16an\	.	.
.	.	.	16g\JJ	.	.
*v	*v	*	*	*	*
=125	=125	=125	=125	=125
8r	.	16a/LL	.	f
.	.	16f/	.	.
8BBL 8BBB/	.	16c#X/	.	.
.	.	16e/JJ	.	.
8C 8CC/	.	16d/LL	.	.
.	.	16cn/	.	.
8DJ 8DD/	.	16f 16B/	.	.
.	.	16A/JJ)	.	.
(16B\LL	.	8r	.	.
16G#X\	.	.	.	.
16D#X\	.	(>8bL 8B/	.	.
16F\JJ	.	.	.	.
16E/LL	.	8cc 8c/	.	.
16Dn/	.	.	.	.
16BB/	.	8ddJ 8d/	.	.
16C/JJ	.	.	.	.
!!LO:LB:g=original
=126	=126	=126	=126	=126
8BB/)	.	8dd#X 8d#X/)	.	.
(16dn\LL	.	4ee 4e~/	.	.
16c\JJ	.	.	.	.
16B\LL	.	.	.	>
16c\	.	.	.	.
16B\	.	4ff 4f~\	.	.
16A\JJ	.	.	.	.
16B\LL	.	.	.	.
16c\	.	.	.	.
16B\	.	(8ff#XL 8f#X\	.	.
16A\JJ	.	.	.	.
16B\LL	.	8gg 8g\	.	.
16c\	.	.	.	.
16B\	.	8gg#XJ 8g#X\)	.	]
16E\JJ)	.	.	.	.
=127	=127	=127	=127	=127
8r	.	(16A/LL	.	.
.	.	16c/	.	.
(8EL 8EE/	.	16e/	.	.
.	.	16a/JJ	.	.
8D 8DD/	.	16g#X\LL	.	.
.	.	16b\	.	.
8BBJ 8BBB/	.	16dd\	.	.
.	.	16ff\JJ	.	.
!	!	!	!	!LO:DY:rj
8CL 8CC'/)	.	16ee\LL	.	p
!	!	!	!	!LO:HP:t=poco a poco cresc.
.	.	16cc\	.	<
8AA 8AAA'/	.	16g#\	.	.
.	.	16b\JJ	.	.
8C#X 8CC#X'/	.	16a/LL	.	.
.	.	16gn/	.	.
8AAJ 8AAA'/	.	16f/	.	.
.	.	16e/JJ	.	.
!!LO:LB:g=original
=128	=128	=128	=128	=128
8DL 8DD/	.	16r	.	.
.	.	16F/LL	.	.
8AA 8AAA/	.	16A/	.	.
.	.	16d/JJ	.	.
8E 8EE/	.	16c#X/LL	.	.
.	.	16e/	.	.
8AAJ 8AAA/	.	16g/	.	.
.	.	16b-X/JJ	.	.
8FL 8FF/	.	16a/LL	.	.
.	.	16f/	.	.
8AA 8AAA/	.	16c#/	.	.
.	.	16e/JJ)	.	.
8F#X 8FF#X/	.	16r	.	.
.	.	(16d/LL	.	.
8AAJ 8AAA/	.	16dd 16ccn/	.	.
.	.	[16dd/JJ	.	.
=129	=129	=129	=129	=129
8GL 8GG/	.	16ddd 16bb 16dd\])	.	.
.	.	16r	.	.
8AA 8AAA/	.	(16B/LL	.	.
.	.	16g/JJ	.	.
8A 8AA/	.	16f#X\LL	.	.
.	.	16a\	.	.
8AAJ 8AAA/	.	16cc\	.	.
.	.	16ee-X\JJ	.	.
8cL 8C/	.	16dd/LL	.	.
.	.	16bn/	.	.
8C 8CC/	.	16f#/	.	.
.	.	16a/JJ	.	.
8B 8BB/	.	16g/LL	.	.
.	.	16fn/	.	.
8AAJ 8AAA/	.	16e/	.	.
.	.	16d/JJ)	.	.
!!LO:PB:g=original
=130	=130	=130	=130	=130
8cL 8C/	.	16r	.	.
.	.	(16e/LL	.	.
8AA 8AAA/	.	16g/	.	.
.	.	16cc/JJ	.	.
8d 8D/	.	16b\LL	.	.
.	.	16dd\	.	.
8AAJ 8AAA/	.	16ff\	.	.
.	.	16bb\JJ)	.	.
8cL 8C/	.	16r	.	.
.	.	(16e/LL	.	.
8AA 8AAA/	.	16g/	.	.
.	.	16eeJJ 16cc/	.	.
8d 8D/	.	16ff\LL	.	.
.	.	16bb\	.	.
8AAJ 8AAA/	.	16ddd\	.	.
.	.	16fff\JJ)	.	.
=131	=131	=131	=131	=131
8cL 8C/	.	16r	.	.
.	.	(16e/LL	.	.
8AA 8AAA/	.	16g/	.	.
.	.	16eeJJ 16cc/	.	.
8d 8D/	.	16ff\LL	.	.
.	.	16bb\	.	.
8AAJ 8AAA/	.	16ddd\	.	.
.	.	16fff\JJ)	.	.
8eL 8E/	.	16r	.	.
!!LO:TX:a:i:t=poco slarg.
.	.	(16g\LL	.	.
8AA 8AAA/	.	16cc\	.	.
.	.	16ggJJ 16ee\	.	.
8f 8F/	.	16gg#X\LL	.	.
.	.	16ddd\	.	.
8AAJ 8AAA/	.	16fff\	.	.
.	.	16ggg#X\JJ)	.	.
!!LO:LB:g=original
=132	=132	=132	=132	=132
!!LO:TX:a:i:t=a tempo
(16AALL 16AAA^/	.	8.r	.	ff
16C/	.	.	.	.
16E/	.	.	.	.
16A/JJ	.	16ee 16cc 16e^>/	.	.
16G#X\LL	.	16ff 16dd 16f^\	.	.
16B\	.	16r	.	.
16d\JJ)	.	(16bbLL 16b^\	.	.
16r	.	16ffJJ 16dd\)	.	.
(16AALL 16AAA^/	.	8.r	.	.
16C/	.	.	.	.
16E/	.	.	.	.
16A/JJ	.	16ee 16cc 16e^>/	.	.
16G#\LL	.	16ff 16dd 16f^\	.	.
16B\	.	16r	.	.
16d\JJ)	.	(16bbLL 16b^\	.	.
16r	.	16ffJJ 16dd\)	.	.
=133	=133	=133	=133	=133
(16AALL 16AAA/	.	8.r	.	.
16C/	.	.	.	.
16E/	.	.	.	.
*	*	*8va	*	*
16A/JJ	.	16eeeKL 16ccc 16ee^\	.	.
16G#X\LL	.	8fff 8ddd 8ff'^\	.	.
16B\	.	.	.	.
16d\	.	8bbbJ 8fff 8ddd 8bb'^\	.	.
16f\JJ	.	.	.	.
*	*	*X8va	*	*
16e\LL	.	8.r	.	.
16c\	.	.	.	.
16G#\	.	.	.	.
16B\JJ	.	(16e/KL	.	.
16A\LL	.	8f'/)	.	.
16Gn\	.	.	.	.
16F\	.	[8aJ [8A^>/	.	.
16E\JJ	.	.	.	.
!!LO:LB:g=original
=134	=134	=134	=134	=134
16F\LL	.	1a] 1A]	.	.
16E\	.	.	.	.
16D\	.	.	.	.
16C\JJ	.	.	.	.
16D/LL	.	.	.	.
16C/	.	.	.	.
16BB/	.	.	.	.
16AA/JJ	.	.	.	.
16BB/LL	.	.	.	.
16AA/	.	.	.	.
16GG/	.	.	.	.
16FF/JJ	.	.	.	.
16GG/LL	.	.	.	.
16FF/	.	.	.	.
16EE/	.	.	.	.
16DD/JJ)	.	.	.	.
=135	=135	=135	=135	=135
2r	.	2.a 2.A^>/	.	.
(16GG^>/LL	.	.	.	.
16FF/	.	.	.	.
16EE/	.	.	.	.
16DD/JJ)	.	.	.	.
4r	.	[4a [4A^>/	.	.
=136	=136	=136	=136	=136
4r	.	1a_ 1A_	.	.
8FF^/	.	.	.	.
8r	.	.	.	.
8EE^/	.	.	.	.
8r	.	.	.	.
8GG^/	.	.	.	.
8r	.	.	.	.
!!LO:LB:g=original
=137	=137	=137	=137	=137
1r	.	2a_ 2A/]	.	.
.	.	2a/_	.	.
=138	=138	=138	=138	=138
*	*	*^	*	*
!!LO:TX:a:i:t=animato
!	!	!	!	!	!LO:DY:t=%s legg.
4r	.	4ryy	1a_	.	p
4f'\	.	4aa 4dd'/	.	.	.
4e'\	.	4gg 4dd'/	.	.	.
4g'\	.	4bb-X 4dd'/	.	.	.
=139	=139	=139	=139	=139	=139
*	*	*	*^	*	*
(4.f\	.	(4.aa/	1a_	2.dd/	.	.
8e'\	.	8gg'/	.	.	.	.
4d'\)	.	4ff'/)	.	.	.	.
4c'\	.	4ee'/	.	4ryy	.	.
*	*	*	*v	*v	*	*
=140	=140	=140	=140	=140	=140
2B\	.	(4dd 4a]\	4ryy	.	.
.	.	4a/	4ryy	.	<
[2B-X\	.	4.b-X/	2a-X\	.	.
.	.	8dd/)	.	.	[
=141	=141	=141	=141	=141	=141
!!LO:TX:a:i:t=slentando
4B-\]	.	(4dd/	2g\	.	>
(2A\	.	4an/	.	.	.
.	.	[4bn/	[4f\	.	]
8G#X\)	.	8dd 8b] 8f]/)	4ryy	.	.
8r;	.	8r;	.	.	.
*	*	*v	*v	*	*
!!LO:LB:g=original
=142||	=142||	=142||	=142||	=142||
*k[f#c#g#]	*	*k[f#c#g#]	*	*
*8ba	*	*	*	*
!!LO:TX:a:i:t=a tempo meno mosso
4AAA 4AAAA/	.	4r	.	fff
*X8ba	*	*	*	*
!	!	!LO:TX:b:i:t=grandioso	!	!
4e 4c# 4E^\	.	4eee 4aa 4ee^\	.	.
4e 4B 4E^\	.	4ddd 4aa 4dd^\	.	.
4e 4d 4E^\	.	4fff# 4aa 4ff#^\	.	.
=143	=143	=143	=143	=143
4.e 4.c# 4.E^\	.	4.eee 4.aa 4.ee^\	.	.
!!LO:TX:a:i:t=allarg. molto
8E 8BB^>/	.	8dd 8a 8d^>/	.	.
4E 4AA^>/	.	4cc# 4a 4c#^>/	.	.
4E 4GG#^>/	.	4b 4e 4B^>/	.	.
=144	=144	=144	=144	=144
*	*	*^	*	*
4F# 4C# 4FF#/	.	4a 4e 4A/	4ryy	.	.
!	!	!LO:TX:a:i:t=m.g.	!	!	!LO:DY:a:rj
4F#:: 4C#:: 4FF#::/	.	4aa/	4a:: 4f#:: 4e:: 4A::\	.	sf
*ped	*	*	*	*	*
*8ba	*	*	*	*	*
4BBB 4BBBB/	.	4ryy	4ryy	.	sf
*X8ba	*	*	*	*	*
!	!	!LO:TX:a:i:t=m.g.	!	!	!
4A:: 4F#:: 4BB::\	.	4aa^/	4dd:: 4a:: 4f#:: 4d::\	.	.
*	*	*v	*v	*	*
=145	=145	=145	=145	=145
*	*	*8va	*	*
!	!	!LO:TX:b:i:t=pesante	!	!
4r	.	4.aaaa 4.aaa^\	.	.
8r	.	.	.	.
!!LO:TX:a:i:t=con passione
8a 8A~\	.	8aaa 8aa~\	.	.
4g# 4G#~\	.	4ggg# 4gg#~\	.	.
4f# 4F#~\	.	4fff# 4ff#~\	.	.
*Xped	*	*	*	*
=146	=146	=146	=146	=146
*^	*	*	*	*
.	[<8qEE [8qEEE/	.	.	.	.
4.e 4.d 4.G# 4.E/	4.EE] 4.EEE\]	.	4.eee 4.bb 4.gg# 4.ee 4.dd^>/	.	.
*	*	*	*X8va	*	*
8B 8BB^\	8ryy	.	8bb 8b^\	.	.
4c# 4C#^\	2ryy	.	4ccc# 4cc#^\	.	.
4d 4D^\	.	.	4ddd 4dd^\	.	.
*v	*v	*	*	*	*
!!LO:LB:g=original
=147	=147	=147	=147	=147
8c#L 8C#~\	.	8ccc#L 8cc#~\	.	.
!	!	!LO:TX:b:i:t=accel.	!	!
8B 8BB~\	.	8bb 8b~\	.	.
8A 8AA~\	.	8aa 8a~\	.	.
8F#J 8FF#\	.	8ff#J 8f#\	.	.
8G#L 8GG#/	.	8gg#L 8g#/	.	.
8F# 8FF#/	.	8ff# 8f#/	.	.
8E 8EE/	.	8ee 8e/	.	.
8BBJ 8BBB/	.	8bJ 8B/	.	.
=148	=148	=148	=148	=148
8C#L 8CC#/	.	8cc#L 8c#/	.	.
8D 8DD/	.	8dd 8d/	.	.
8C# 8CC#/	.	8cc# 8c#/	.	.
8BBJ 8BBB/	.	8bJ 8B/	.	.
*	*	*clefF4	*	*
8AAL 8AAA/	.	8aL 8A\	.	.
!LO:TX:b:i:t=con 8va-:dur=19e:ext=cd:problem:text with extention lines	!	!	!	!
8FF# 8FFF#yy/	.	8f# 8F#\	.	.
8GG# 8GGG#yy/	.	8g# 8G#\	.	.
8FF# 8FFF#yy/J	.	8f#J 8F#\	.	.
=149	=149	=149	=149	=149
!	!	!LO:TX:b:i:t=slarg.	!	!
8EE 8EEEyy/L	.	8eL 8E\	.	.
8BBB 8BBBByy/	.	8B 8BB\	.	.
8CC# 8CCC#yy/	.	8c# 8C#\	.	.
8DD 8DDDyy/J	.	8dJ 8D\	.	.
8CC# 8CCC#yy/L	.	8c#L 8C#\	.	.
8BBB 8BBBByy/J	.	8BJ 8BB\	.	.
4EE 4EEEyy/	.	4e 4E\	.	.
=150	=150	=150	=150	=150
2DD^> 2DDDyy/	.	2D^\	.	.
2FF#^> 2FFF#yy/	.	2F#^\	.	.
*	*	*clefG2	*	*
=151	=151	=151	=151	=151
*8ba	*	*ped	*	*
4AAA 4AAAA^>/	.	4ryy	.	.
*X8ba	*	*	*	*
*rscale:2 	*	*rscale:2	*	*
*cue	*	*cue	*	*
!LO:TX:a:i:t=m.g.	!	!	!	!
32EE\LL	.	8ryy	.	.
32AA\	.	.	.	.
32C#\	.	.	.	.
32E\JJ	.	.	.	.
!	!	!LO:TX:a:i:t=m.d.	!	!
8ryy	.	32A</LL	.	.
.	.	32c#/	.	.
.	.	32e/	.	.
.	.	32a/JJ	.	.
!	!	!LO:TX:b:i:t=m.g.	!	!
32cc#>\LL	.	8ryy	.	.
32ee>\	.	.	.	.
32aa>\	.	.	.	.
32ccc#>\JJ	.	.	.	.
*	*	*8va	*	*
!	!	!LO:TX:a:i:t=m.d.	!	!
8ryy	.	32eee/LL	.	.
.	.	32aaa/	.	.
.	.	32cccc#/	.	.
!	!	!LO:TX:b:i:t=m.g.	!	!
.	.	32eeee/JJ	.	.
*Xcue	*	*	*	*
*rscale:1	*	*Xcue	*	*
*8va	*	*rscale:1	*	*
4aaaa>^\	.	4ryy	.	.
*X8va	*	*X8va	*	*
*	*	*Xped	*	*
==	==	==	==	==
*-	*-	*-	*-	*-
!!!system-decoration: {(g1)}
!!!RDF**kern: i = editorial accidental
!!!RDF**kern: > = above
!!!RDF**kern: < = below
!!!RDF**kern: N = linked
!!!RDF**dynam: > = "dim.", fontstyle= "italic"
!!!ENC: Andrzej Gręziak
!!!EED: Katarzyna Serwa
!!!END: 2023-10-19
!!!EEV: 2023-11-08
